!!!!SEGMENT: pl-wtm--r-1564--011_stefani-jozef--stabat-mater-andantino.krn
!!!cenid: 18xx:2892
!!!COM: Stefani, Józef
!!!COM-rismid: pe30024097
!!!CDT: 1800/04/16-1876/03/19
!!!CNT: Polish
!!!OPR: Stabat Mater
!!!OTL: Andantino
!!!OMV: 011
!!!PDT:
!!!AGN: Sacred
!!!SMS-siglum: PL-Wtm
!!!SMS-shelfmark: R 1564
!!!SMS-shelfwork: 001-011 M
!!!SMS-variant:
!!!SMS-altvar:
!!!NIFC-rismid: 1001115293
!!!URL-scan: http://repozytorium.nifc.pl/skany/pl-wtm-nut--r1564
!!!ONB-nifc: UWAGA: części Stabat Mater: 1. Andante, 2. Andantino, 3. Aria (Adagio), 4. Adagio, 5. Aria per il Basso, 6. Adagio, 7. Larghetto, 8. Aria per il Tenore, 9. Duetino (per il Soprano e Alto con Choro), 10. Arietta per il Alto, 11. Andantino (w źródle jako No. 10 ½), 12. Finale (w źródle jako No. 11)
!!!key:
**kern	**kern	**kern	**kern	**kern	**kern	**kern	**dynam	**kern	**text	**kern	**text	**dynam	**kern	**text	**dynam	**kern	**text	**dynam	**kern	**text	**dynam	**kern	**text	**dynam	**kern	**text	**dynam	**kern	**text	**dynam	**kern	**text	**dynam	**kern	**text	**dynam	**kern	**kern	**kern	**kern	**kern	**dynam	**kern	**dynam	**kern	**dynam	**kern	**dynam	**kern	**dynam
*group8	*group8	*	*group7	*group7	*group6	*group6	*	*group5	*	*group5	*	*	*group4	*	*	*group4	*	*	*group4	*	*	*group4	*	*	*group3	*	*	*group3	*	*	*group3	*	*	*group3	*	*	*	*group2	*group2	*	*group1	*	*group1	*	*group1	*	*group1	*	*group1	*
*part25	*part24	*part23	*part22	*part21	*part20	*part20	*part20	*part19	*part19	*part18	*part18	*part18	*part17	*part17	*part17	*part16	*part16	*part16	*part15	*part15	*part15	*part14	*part14	*part14	*part13	*part13	*part13	*part12	*part12	*part12	*part11	*part11	*part11	*part10	*part10	*part10	*part9	*part8	*part7	*part6	*part5	*part5	*part4	*part4	*part3	*part3	*part2	*part2	*part1	*part1
*staff26	*staff25	*staff24	*staff23	*staff22	*staff21	*staff20	*	*staff19	*staff19	*staff18	*staff18	*	*staff17	*staff17	*	*staff16	*staff16	*	*staff15	*staff15	*	*staff14	*staff14	*	*staff13	*staff13	*	*staff12	*staff12	*	*staff11	*staff11	*	*staff10	*staff10	*	*staff9	*staff8	*staff7	*staff6	*staff5	*	*staff4	*	*staff3	*	*staff2	*	*staff1	*
*	*	*	*I""Violini	*I""Violini	*I""Harpha.	*I""Harpha.	*	*I""Choro.	*	*I""Choro.	*	*	*I""2do Quartetto	*	*	*I""2do Quartetto	*	*	*I""2do Quartetto	*	*	*I""2do Quartetto	*	*	*I""1°. Quartetto	*	*	*I""1°. Quartetto	*	*	*I""1°. Quartetto	*	*	*I""1°. Quartetto	*	*	*	*	*	*	*	*	*	*	*	*	*	*	*	*
*Ibass	*Icello	*Iviola	*Iempty	*Iempty	*Iempty	*Iempty	*	*Ibass	*	*Isoprn	*	*	*Iempty	*	*	*Itenor	*	*	*Iempty	*	*	*Iempty	*	*	*Iempty	*	*	*Itenor	*	*	*Iempty	*	*	*Iempty	*	*	*Itimpa	*Itromt	*Itromt	*Itromp	*Ifagot	*	*Icor	*	*Iclars	*	*Ioboe	*	*Iflt	*
*I"C.Basso	*I"Violoncello	*I"Viole	*	*	*	*	*	*I"Basso	*	*I"Soprano	*	*	*I"Baſso.	*	*	*I"Tenore	*	*	*I"SopranoII	*	*	*I"Soprano1.°	*	*	*I"Bassi	*	*	*I"Tenori	*	*	*I"Soprano2.°	*	*	*I"Soprano1°.	*	*	*I"Timpani in F.C.	*I"Tromboni	*I"Tromboni	*I"Trombe	*I"Fagotti	*	*I"Corni in D	*	*I"in A Clarinetti	*	*I"Oboe	*	*I"Flauto	*
*clefF4	*clefF4	*clefC3	*clefG2	*clefG2	*clefF4	*clefG2	*	*clefF4	*	*clefG2	*	*	*clefF4	*	*	*clefC4	*	*	*clefG2	*	*	*clefG2	*	*	*clefF4	*	*	*clefC4	*	*	*clefG2	*	*	*clefG2	*	*	*clefF4	*clefF4	*clefC4	*clefG2	*clefF4	*	*clefG2	*	*clefG2	*	*clefG2	*	*clefG2	*
*ITrd0c0	*	*	*	*	*	*	*	*	*	*	*	*	*	*	*	*	*	*	*	*	*	*	*	*	*	*	*	*	*	*	*	*	*	*	*	*	*	*	*	*	*	*	*ITrd6c10	*	*ITrd2c3	*	*	*	*	*
*k[b-e-]	*k[b-e-]	*k[b-e-]	*k[b-e-]	*k[b-e-]	*k[b-e-]	*k[b-e-]	*	*k[b-e-]	*	*k[b-e-]	*	*	*k[b-e-]	*	*	*k[b-e-]	*	*	*k[b-e-]	*	*	*k[b-e-]	*	*	*k[b-e-]	*	*	*k[b-e-]	*	*	*k[b-e-]	*	*	*k[b-e-]	*	*	*k[b-e-]	*k[b-e-]	*k[b-e-]	*k[b-e-]	*k[b-e-]	*	*k[f#c#]	*	*k[b-e-]	*	*k[b-e-]	*	*k[b-e-]	*
*g:	*g:	*g:	*g:	*g:	*g:	*g:	*	*g:	*	*g:	*	*	*g:	*	*	*g:	*	*	*g:	*	*	*g:	*	*	*g:	*	*	*g:	*	*	*g:	*	*	*g:	*	*	*g:	*g:	*g:	*g:	*g:	*	*g:	*	*g:	*	*g:	*	*g:	*
*M6/8	*M6/8	*M6/8	*M6/8	*M6/8	*M6/8	*M6/8	*	*M6/8	*	*M6/8	*	*	*M6/8	*	*	*M6/8	*	*	*M6/8	*	*	*M6/8	*	*	*M6/8	*	*	*M6/8	*	*	*M6/8	*	*	*M6/8	*	*	*M6/8	*M6/8	*M6/8	*M6/8	*M6/8	*	*M6/8	*	*M6/8	*	*M6/8	*	*M6/8	*
=1	=1	=1	=1	=1	=1	=1	=1	=1	=1	=1	=1	=1	=1	=1	=1	=1	=1	=1	=1	=1	=1	=1	=1	=1	=1	=1	=1	=1	=1	=1	=1	=1	=1	=1	=1	=1	=1	=1	=1	=1	=1	=1	=1	=1	=1	=1	=1	=1	=1	=1
*	*	*	*	*	*all/right	*all/right	*	*all/right	*	*all/right	*	*	*all/right	*	*	*all/right	*	*	*all/right	*	*	*all/right	*	*	*all/right	*	*	*all/right	*	*	*all/right	*	*	*all/right	*	*	*	*	*	*	*all/right	*	*all/right	*	*all/right	*	*all/right	*	*all/right	*
!	!	!	!	!LO:TX:t=P:problem=nazwy instrumentów smyczkowych wg skanu 0046	!	!	!	!	!	!	!	!	!	!	!	!	!	!	!	!	!	!	!	!	!	!	!	!	!	!	!	!	!	!	!	!	!LO:TX:t=P:problem=nazwa instrumentu wg skanu 0021	!LO:TX:t=P:problem=nazwa instrumentu wg skanu 0021	!LO:TX:t=P:problem=nazwa instrumentu wg skanu 0021	!LO:TX:t=P:problem=nazwa instrumentu wg skanu 0021	!	!	!	!	!	!	!	!	!	!
!	!	!	!	!	!	!	!LO:DY:rj	!	!	!	!	!	!	!	!	!	!	!	!	!	!	!	!	!	!	!	!	!	!	!	!	!	!	!	!	!	!	!	!	!	!	!LO:DY:rj	!	!LO:DY:rj	!	!	!	!	!	!LO:DY:rj
2.ryy	2.ryy	2.ryy	2.ryy	2.ryy	8g\L 8d\ 8B-\	8ddd\L 8gg\ 8dd\	f	2.r	.	2.r	.	.	2.r	.	.	2.r	.	.	2.r	.	.	2.r	.	.	2.r	.	.	2.r	.	.	2.r	.	.	2.r	.	.	2.ryy	2.ryy	2.ryy	2.ryy	8B-\L 8BB-\	f	8d\L	f	8dd\L 8g\	.	8gg\L	.	8ddd\L	f
.	.	.	.	.	8r	8r	.	.	.	.	.	.	.	.	.	.	.	.	.	.	.	.	.	.	.	.	.	.	.	.	.	.	.	.	.	.	.	.	.	.	8r	.	8r	.	8r	.	8r	.	8r	.
.	.	.	.	.	8f#X\J 8d\ 8A\	8ccc\J 8ff#X\ 8dd\	.	.	.	.	.	.	.	.	.	.	.	.	.	.	.	.	.	.	.	.	.	.	.	.	.	.	.	.	.	.	.	.	.	.	8A\J 8AA\	.	8d\J	.	8cc\J 8f#\	.	8ff#X\J	.	8ccc\J	.
.	.	.	.	.	8g\L 8d\ 8B-\ 8G\	8bb-\L 8gg\ 8dd\	.	.	.	.	.	.	.	.	.	.	.	.	.	.	.	.	.	.	.	.	.	.	.	.	.	.	.	.	.	.	.	.	.	.	8G\ 8GG\	.	8d\L	.	8b-\L 8g\	.	8gg\L	.	8bb-\L	.
.	.	.	.	.	8r	8r	.	.	.	.	.	.	.	.	.	.	.	.	.	.	.	.	.	.	.	.	.	.	.	.	.	.	.	.	.	.	.	.	.	.	8r	.	8r	.	8r	.	8r	.	8r	.
.	.	.	.	.	8d\J 8A\ 8F#X\ 8D\	8aa\J 8ff#\ 8dd\	.	.	.	.	.	.	.	.	.	.	.	.	.	.	.	.	.	.	.	.	.	.	.	.	.	.	.	.	.	.	.	.	.	.	8D/ 8DD/	.	8d\J	.	8a\J 8f#\	.	8ff#\J	.	8aa\J	.
=2	=2	=2	=2	=2	=2	=2	=2	=2	=2	=2	=2	=2	=2	=2	=2	=2	=2	=2	=2	=2	=2	=2	=2	=2	=2	=2	=2	=2	=2	=2	=2	=2	=2	=2	=2	=2	=2	=2	=2	=2	=2	=2	=2	=2	=2	=2	=2	=2	=2	=2
*	*	*	*	*	*	*	*	*	*	*	*	*	*	*	*	*	*	*	*	*	*	*	*	*	*	*	*	*	*	*	*	*	*	*	*	*	*	*	*	*	*	*	*	*	*^	*	*	*	*	*
2.ryy	2.ryy	2.ryy	2.ryy	2.ryy	8e-\L 8B-\ 8G\ 8E-\	8gg\L 8ee-\ 8b-\	.	2.r	.	2.r	.	.	2.r	.	.	2.r	.	.	2.r	.	.	2.r	.	.	2.r	.	.	2.r	.	.	2.r	.	.	2.r	.	.	2.ryy	2.ryy	2.ryy	2.ryy	8E-/L 8EE-/	.	8d\L	.	8b-\L 8g\	4.ryy	.	8gg\L	.	8gg\L	.
.	.	.	.	.	8r	8r	.	.	.	.	.	.	.	.	.	.	.	.	.	.	.	.	.	.	.	.	.	.	.	.	.	.	.	.	.	.	.	.	.	.	8r	.	8r	.	8r	.	.	8r	.	8r	.
.	.	.	.	.	8c\J 8A\ 8E-\ 8C\	8aa\J 8ee-\ 8cc\	.	.	.	.	.	.	.	.	.	.	.	.	.	.	.	.	.	.	.	.	.	.	.	.	.	.	.	.	.	.	.	.	.	.	8C/J 8CC/	.	8e-X\J 8cX\	.	8a\J	.	.	8ee-\J	.	8aa\J	.
.	.	.	.	.	8d\ 8A\ 8F#X\ 8D\	8ff#X\ 8dd\ 8a\	.	.	.	.	.	.	.	.	.	.	.	.	.	.	.	.	.	.	.	.	.	.	.	.	.	.	.	.	.	.	.	.	.	.	8D/ 8DD/	.	8d\	.	8a/L	8f#\	.	8dd\L	.	8ff#X\L	.
.	.	.	.	.	8r	8r	.	.	.	.	.	.	.	.	.	.	.	.	.	.	.	.	.	.	.	.	.	.	.	.	.	.	.	.	.	.	.	.	.	.	8r	.	8r	.	8r	8r	.	8r	.	8r	.
.	.	.	.	.	8r	8r	.	.	.	.	.	.	.	.	.	.	.	.	.	.	.	.	.	.	.	.	.	.	.	.	.	.	.	.	.	.	.	.	.	.	8r	.	8r	.	8d/J	8r	.	8dd\J	.	8dd\J	.
*	*	*	*	*	*	*	*	*	*	*	*	*	*	*	*	*	*	*	*	*	*	*	*	*	*	*	*	*	*	*	*	*	*	*	*	*	*	*	*	*	*	*	*	*	*v	*v	*	*	*	*	*
=3	=3	=3	=3	=3	=3	=3	=3	=3	=3	=3	=3	=3	=3	=3	=3	=3	=3	=3	=3	=3	=3	=3	=3	=3	=3	=3	=3	=3	=3	=3	=3	=3	=3	=3	=3	=3	=3	=3	=3	=3	=3	=3	=3	=3	=3	=3	=3	=3	=3	=3
2.ryy	2.ryy	2.ryy	2.ryy	2.ryy	8d\L 8B-\ 8G\	8gg\L 8dd\ 8b-\ 8g\	.	2.r	.	2.r	.	.	2.r	.	.	2.r	.	.	2.r	.	.	2.r	.	.	2.r	.	.	2.r	.	.	2.r	.	.	2.r	.	.	2.ryy	2.ryy	2.ryy	2.ryy	8G/L 8GG/	.	8d\L	.	8b-/L 8g/	.	8gg\L	.	8gg\L	.
.	.	.	.	.	8r	8r	.	.	.	.	.	.	.	.	.	.	.	.	.	.	.	.	.	.	.	.	.	.	.	.	.	.	.	.	.	.	.	.	.	.	8r	.	8r	.	8r	.	8r	.	8r	.
.	.	.	.	.	8d\J 8A\ 8F#X\ 8D\	8aa\J 8ff#X\ 8dd\	.	.	.	.	.	.	.	.	.	.	.	.	.	.	.	.	.	.	.	.	.	.	.	.	.	.	.	.	.	.	.	.	.	.	8D/J 8DD/	.	8d\J	.	8a/J 8f#/	.	8ff#X\J	.	8aa\J	.
.	.	.	.	.	8d\L 8B-\ 8G\	8bb-\L 8gg\ 8dd\	.	.	.	.	.	.	.	.	.	.	.	.	.	.	.	.	.	.	.	.	.	.	.	.	.	.	.	.	.	.	.	.	.	.	8G/L 8GG/	.	8d\L	.	8b-/L 8g/	.	8gg\L	.	8bb-\L	.
.	.	.	.	.	8r	8r	.	.	.	.	.	.	.	.	.	.	.	.	.	.	.	.	.	.	.	.	.	.	.	.	.	.	.	.	.	.	.	.	.	.	8r	.	8r	.	8r	.	8r	.	8r	.
.	.	.	.	.	8c\J 8G\ 8E-\	8ccc\J 8gg\ 8ee-\	.	.	.	.	.	.	.	.	.	.	.	.	.	.	.	.	.	.	.	.	.	.	.	.	.	.	.	.	.	.	.	.	.	.	8E-/J 8EE-/	.	8e-X\J 8cX\	.	8cc/J 8g/	.	8gg\J	.	8ccc\J	.
!!LO:PB:g=original
=4	=4	=4	=4	=4	=4	=4	=4	=4	=4	=4	=4	=4	=4	=4	=4	=4	=4	=4	=4	=4	=4	=4	=4	=4	=4	=4	=4	=4	=4	=4	=4	=4	=4	=4	=4	=4	=4	=4	=4	=4	=4	=4	=4	=4	=4	=4	=4	=4	=4	=4
*	*	*	*	*	*	*^	*	*	*	*	*	*	*	*	*	*	*	*	*	*	*	*	*	*	*	*	*	*	*	*	*	*	*	*	*	*	*	*	*	*	*	*	*^	*	*	*	*	*	*	*
2.ryy	2.ryy	2.ryy	2.ryy	2.ryy	8d\ 8A\ 8F#X\ 8D\	8ddd\ 8ff#X\ 8dd\	4ryy	.	2.r	.	2.r	.	.	2.r	.	.	2.r	.	.	2.r	.	.	2.r	.	.	4r	.	.	4r	.	.	4r	.	.	4r	.	.	2.ryy	2.ryy	2.ryy	2.ryy	8D/ 8DD/	.	8d/	8d\	.	8dd\ 8f#\	.	8ff#X\	.	8ddd\	.
.	.	.	.	.	8r	8r	.	.	.	.	.	.	.	.	.	.	.	.	.	.	.	.	.	.	.	.	.	.	.	.	.	.	.	.	.	.	.	.	.	.	.	8r	.	8r	8ryy	.	8r	.	8r	.	8r	.
.	.	.	.	.	8c\ 8G\ 8E-\ 8C\	16ccc/LL	8gg\	.	.	.	.	.	.	.	.	.	.	.	.	.	.	.	.	.	.	8r	.	.	8r	.	.	8r	.	.	8r	.	.	.	.	.	.	8C/ 8CC/	.	8e-X/	8cX\	.	8ee-\ 8g\	.	8gg\	.	(16ccc\LL	.
.	.	.	.	.	.	16eee-/JJ	.	.	.	.	.	.	.	.	.	.	.	.	.	.	.	.	.	.	.	.	.	.	.	.	.	.	.	.	.	.	.	.	.	.	.	.	.	.	.	.	.	.	.	.	16eee-\JJ)	.
.	.	.	.	.	8d\ 8A\ 8F#X\ 8D\	8ddd/	8ff#X\	.	.	.	.	.	.	.	.	.	.	.	.	.	.	.	.	.	.	4r	.	.	4r	.	.	4r	.	.	4r	.	.	.	.	.	.	8D/ 8DD/	.	8d/	8d\	.	8dd\ 8f#\	.	8ff#\	.	8ddd\	.
.	.	.	.	.	8r	8r	4ryy	.	.	.	.	.	.	.	.	.	.	.	.	.	.	.	.	.	.	.	.	.	.	.	.	.	.	.	.	.	.	.	.	.	.	8r	.	8r	8ryy	.	8r	.	8r	.	8r	.
.	.	.	.	.	8B-\ 8BB-\	8dd/ 8g/ 8d/	.	.	.	.	.	.	.	.	.	.	.	.	.	.	.	.	.	.	.	[8B-\	Vir-	.	[8d\	.	.	[8g/	.	.	[8dd\	Vir-	.	.	.	.	.	8r	.	8r	8ryy	.	8r	.	8r	.	8r	.
*	*	*	*	*	*	*v	*v	*	*	*	*	*	*	*	*	*	*	*	*	*	*	*	*	*	*	*	*	*	*	*	*	*	*	*	*	*	*	*	*	*	*	*	*	*v	*v	*	*	*	*	*	*	*
=5	=5	=5	=5	=5	=5	=5	=5	=5	=5	=5	=5	=5	=5	=5	=5	=5	=5	=5	=5	=5	=5	=5	=5	=5	=5	=5	=5	=5	=5	=5	=5	=5	=5	=5	=5	=5	=5	=5	=5	=5	=5	=5	=5	=5	=5	=5	=5	=5	=5	=5
2.ryy	2.ryy	2.ryy	2.ryy	2.ryy	8B-\ 8BB-\L	8dd/L 8g/ 8d/	.	2.ryy	.	2.ryy	.	.	2.r	.	.	2.r	.	.	2.r	.	.	2.r	.	.	8B-\]	.	.	8d\]	.	.	8g/]	.	.	8dd\]	.	.	2.ryy	2.ryy	2.ryy	2.ryy	2.r	.	2.r	.	2.r	.	2.r	.	2.r	.
.	.	.	.	.	8r	8r	.	.	.	.	.	.	.	.	.	.	.	.	.	.	.	.	.	.	8B-\	-go	.	8d\	.	.	8g/	.	.	8dd\	-go	.	.	.	.	.	.	.	.	.	.	.	.	.	.	.
.	.	.	.	.	8A\ 8AA\J	8cc/J 8f#X/ 8d/	.	.	.	.	.	.	.	.	.	.	.	.	.	.	.	.	.	.	8A\	vir-	.	8d\	.	.	8f#X/	.	.	8cc\	vir-	.	.	.	.	.	.	.	.	.	.	.	.	.	.	.
.	.	.	.	.	8G/ 8GG/L	8b-/L 8g/ 8d/	.	.	.	.	.	.	.	.	.	.	.	.	.	.	.	.	.	.	8G\	-gi-	.	8d\	.	.	8g/	.	.	8cc\	-gi-	.	.	.	.	.	.	.	.	.	.	.	.	.	.	.
.	.	.	.	.	8r	8r	.	.	.	.	.	.	.	.	.	.	.	.	.	.	.	.	.	.	8G\	-num	.	8d\	.	.	8g/	.	.	8b-\	-num	.	.	.	.	.	.	.	.	.	.	.	.	.	.	.
!	!	!	!	!	!	!	!	!	!	!	!	!	!	!	!	!	!	!	!	!	!	!	!	!	!LO:SIC:v:l:s=prae-	!	!	!	!	!	!	!	!	!LO:SIC:v:l:s=prae-	!	!	!	!	!	!	!	!	!	!	!	!	!	!	!	!
.	.	.	.	.	8D/ 8DD/J	8a/J 8f#/ 8d/	.	.	.	.	.	.	.	.	.	.	.	.	.	.	.	.	.	.	8D\	proe-	.	8d\	.	.	8f#/	.	.	8a\	proe-	.	.	.	.	.	.	.	.	.	.	.	.	.	.	.
=6	=6	=6	=6	=6	=6	=6	=6	=6	=6	=6	=6	=6	=6	=6	=6	=6	=6	=6	=6	=6	=6	=6	=6	=6	=6	=6	=6	=6	=6	=6	=6	=6	=6	=6	=6	=6	=6	=6	=6	=6	=6	=6	=6	=6	=6	=6	=6	=6	=6	=6
!	!	!	!	!	!	!	!	!	!	!	!	!	!	!	!	!	!	!	!	!	!	!	!	!	!LO:SIC:v:l:s=-cla-	!	!	!	!	!	!	!	!LO:SIC:v:l:s=-cla-	!	!	!	!	!	!	!	!	!	!	!	!	!	!	!	!	!
2.ryy	2.ryy	2.ryy	2.ryy	2.ryy	8E-/ 8EE-/L	8r	.	2.ryy	.	2.ryy	.	.	2.r	.	.	2.r	.	.	2.r	.	.	2.r	.	.	(4E-\	-cte-	.	(4B-\	.	.	(4g/	.	.	(4g/	-cte-	.	2.ryy	2.ryy	2.ryy	2.ryy	2.ryy	.	2.ryy	.	2.ryy	.	2.ryy	.	2.ryy	.
.	.	.	.	.	8r	8g/L 8e-/ 8B-/	.	.	.	.	.	.	.	.	.	.	.	.	.	.	.	.	.	.	.	.	.	.	.	.	.	.	.	.	.	.	.	.	.	.	.	.	.	.	.	.	.	.	.	.
.	.	.	.	.	8C/ 8CC/J	8a/J 8e-/ 8c/	.	.	.	.	.	.	.	.	.	.	.	.	.	.	.	.	.	.	8C/)	.	.	8c\)	.	.	8e-/)	.	.	8a/)	.	.	.	.	.	.	.	.	.	.	.	.	.	.	.	.
.	.	.	.	.	4D/ 4DD/	4f#X/ 4d/ 4A/	.	.	.	.	.	.	.	.	.	.	.	.	.	.	.	.	.	.	4.D\	-ra	.	4.A\	.	.	4.d/	.	.	4.f#X/	-ra	.	.	.	.	.	.	.	.	.	.	.	.	.	.	.
.	.	.	.	.	8r	8r	.	.	.	.	.	.	.	.	.	.	.	.	.	.	.	.	.	.	.	.	.	.	.	.	.	.	.	.	.	.	.	.	.	.	.	.	.	.	.	.	.	.	.	.
=7	=7	=7	=7	=7	=7	=7	=7	=7	=7	=7	=7	=7	=7	=7	=7	=7	=7	=7	=7	=7	=7	=7	=7	=7	=7	=7	=7	=7	=7	=7	=7	=7	=7	=7	=7	=7	=7	=7	=7	=7	=7	=7	=7	=7	=7	=7	=7	=7	=7	=7
2.ryy	2.ryy	2.ryy	2.ryy	2.ryy	2.r	2.r	.	2.ryy	.	2.ryy	.	.	2.r	.	.	2.r	.	.	2.r	.	.	2.r	.	.	4BB-/	Mi-	.	4G/	.	.	4d/	.	.	4g/	Mi-	.	2.ryy	2.ryy	2.ryy	2.ryy	2.ryy	.	2.ryy	.	2.ryy	.	2.ryy	.	2.ryy	.
.	.	.	.	.	.	.	.	.	.	.	.	.	.	.	.	.	.	.	.	.	.	.	.	.	8F#X\	-hi	.	8d\	.	.	8d/	.	.	8a/	-hi	.	.	.	.	.	.	.	.	.	.	.	.	.	.	.
.	.	.	.	.	.	.	.	.	.	.	.	.	.	.	.	.	.	.	.	.	.	.	.	.	8G\	jam	.	8d\	.	.	8g/	.	.	8b-\	jam	.	.	.	.	.	.	.	.	.	.	.	.	.	.	.
.	.	.	.	.	.	.	.	.	.	.	.	.	.	.	.	.	.	.	.	.	.	.	.	.	8G\	su-	.	8d\	.	.	8g/	.	.	8b-\	su-	.	.	.	.	.	.	.	.	.	.	.	.	.	.	.
.	.	.	.	.	.	.	.	.	.	.	.	.	.	.	.	.	.	.	.	.	.	.	.	.	8E-\	-a	.	8c\	.	.	8g/	.	.	8cc\	-a	.	.	.	.	.	.	.	.	.	.	.	.	.	.	.
!!LO:PB:g=original
=8	=8	=8	=8	=8	=8	=8	=8	=8	=8	=8	=8	=8	=8	=8	=8	=8	=8	=8	=8	=8	=8	=8	=8	=8	=8	=8	=8	=8	=8	=8	=8	=8	=8	=8	=8	=8	=8	=8	=8	=8	=8	=8	=8	=8	=8	=8	=8	=8	=8	=8
!	!	!	!	!	!	!	!	!	!	!	!	!	!	!	!	!	!	!	!	!	!	!	!	!	!	!	!	!	!	!LO:HP:b	!	!	!	!	!	!LO:DY:a	!	!	!	!	!	!	!	!	!	!	!	!	!	!
2.ryy	2.ryy	2.ryy	2.ryy	2.ryy	2.r	2.r	.	2.r	.	2.r	.	.	2.r	.	.	2.r	.	.	2.r	.	.	2.r	.	.	4.D\	ma-	.	4.A\	.	>	4.f#X/	.	.	(4dd\	ma-	>	2.ryy	2.ryy	2.ryy	2.ryy	2.r	.	2.r	.	2.r	.	2.r	.	2.r	.
.	.	.	.	.	.	.	.	.	.	.	.	.	.	.	.	.	.	.	.	.	.	.	.	.	.	.	.	.	.	]	.	.	.	16cc\LL)	.	.	.	.	.	.	.	.	.	.	.	.	.	.	.	.
.	.	.	.	.	.	.	.	.	.	.	.	.	.	.	.	.	.	.	.	.	.	.	.	.	.	.	.	.	.	.	.	.	.	16b-\JJ	.	]	.	.	.	.	.	.	.	.	.	.	.	.	.	.
.	.	.	.	.	.	.	.	.	.	.	.	.	.	.	.	.	.	.	.	.	.	.	.	.	4.D\	-ra	.	4.d\	.	.	4.f#/	.	.	4.a/	-ra	.	.	.	.	.	.	.	.	.	.	.	.	.	.	.
=9	=9	=9	=9	=9	=9	=9	=9	=9	=9	=9	=9	=9	=9	=9	=9	=9	=9	=9	=9	=9	=9	=9	=9	=9	=9	=9	=9	=9	=9	=9	=9	=9	=9	=9	=9	=9	=9	=9	=9	=9	=9	=9	=9	=9	=9	=9	=9	=9	=9	=9
*	*	*	*	*	*^	*	*	*	*	*	*	*	*	*	*	*	*	*	*	*	*	*	*	*	*	*	*	*	*	*	*	*	*	*	*	*	*	*	*	*	*	*	*	*	*	*	*	*	*	*
!	!	!	!	!	!	!	!	!LO:DY:rj	!	!	!	!	!	!	!	!LO:DY:b:rj	!	!	!	!	!	!	!	!	!LO:DY:b:rj	!	!	!LO:DY:rj	!	!	!	!	!	!	!	!	!LO:DY:rj	!	!	!	!	!	!	!	!	!	!	!	!	!	!
2.ryy	2.ryy	2.ryy	2.ryy	2.ryy	4.C/	8C\L	8r	f	2.ryy	.	2.ryy	.	.	4.C^>/	fac	f	4.c\	.	.	4.g/	.	.	4.ee-^\	fac	f	4.C^>/	fac	f	2.r	.	.	4.g/	.	.	4.ee-^\	fac	f	2.ryy	2.ryy	2.ryy	2.ryy	2.ryy	.	2.ryy	.	2.ryy	.	2.ryy	.	2.ryy	.
.	.	.	.	.	.	8c\	8ee-/L 8cc/ 8g/ 8e-/	.	.	.	.	.	.	.	.	.	.	.	.	.	.	.	.	.	.	.	.	.	.	.	.	.	.	.	.	.	.	.	.	.	.	.	.	.	.	.	.	.	.	.	.
.	.	.	.	.	.	8c\J	8ee-/J 8cc/ 8g/ 8e-/	.	.	.	.	.	.	.	.	.	.	.	.	.	.	.	.	.	.	.	.	.	.	.	.	.	.	.	.	.	.	.	.	.	.	.	.	.	.	.	.	.	.	.	.
.	.	.	.	.	4.BB-/	8BB-\L	8r	.	.	.	.	.	.	4.BB-^>/	me	.	4.d\	.	.	4.g/	.	.	4.dd^\	me	.	4.BB-^>/	me	.	.	.	.	4.g/	.	.	4.dd^\	me	.	.	.	.	.	.	.	.	.	.	.	.	.	.	.
.	.	.	.	.	.	8B-\	8dd/L 8g/ 8d/	.	.	.	.	.	.	.	.	.	.	.	.	.	.	.	.	.	.	.	.	.	.	.	.	.	.	.	.	.	.	.	.	.	.	.	.	.	.	.	.	.	.	.	.
.	.	.	.	.	.	8B-\J	8dd/J 8g/ 8d/	.	.	.	.	.	.	.	.	.	.	.	.	.	.	.	.	.	.	.	.	.	.	.	.	.	.	.	.	.	.	.	.	.	.	.	.	.	.	.	.	.	.	.	.
=10	=10	=10	=10	=10	=10	=10	=10	=10	=10	=10	=10	=10	=10	=10	=10	=10	=10	=10	=10	=10	=10	=10	=10	=10	=10	=10	=10	=10	=10	=10	=10	=10	=10	=10	=10	=10	=10	=10	=10	=10	=10	=10	=10	=10	=10	=10	=10	=10	=10	=10	=10
2.ryy	2.ryy	2.ryy	2.ryy	2.ryy	4.AA/	8AA\L	8r	.	2.ryy	.	2.ryy	.	.	(4AA^>/	fac	.	4.d\	.	.	4.f#X/	.	.	(4dd^\	fac	.	(4AA^>/	fac	.	4.d\	.	.	4.f#X/	.	.	(4dd^\	fac	.	2.ryy	2.ryy	2.ryy	2.ryy	2.ryy	.	2.ryy	.	2.ryy	.	2.ryy	.	2.ryy	.
.	.	.	.	.	.	8A\	8cc/L 8f#X/ 8d/	.	.	.	.	.	.	.	.	.	.	.	.	.	.	.	.	.	.	.	.	.	.	.	.	.	.	.	.	.	.	.	.	.	.	.	.	.	.	.	.	.	.	.	.
.	.	.	.	.	.	8A\J	8cc/J 8f#/ 8d/	.	.	.	.	.	.	8A\)	.	.	.	.	.	.	.	.	8cc\)	.	.	8A\)	.	.	.	.	.	.	.	.	8cc\)	.	.	.	.	.	.	.	.	.	.	.	.	.	.	.	.
.	.	.	.	.	4.GG/	8GG\L	8r	.	.	.	.	.	.	4.G\	me	.	4.d\	.	.	4.g/	.	.	4.b-\	me	.	4.G\	me	.	4.d\	.	.	4.g/	.	.	4.b-\	me	.	.	.	.	.	.	.	.	.	.	.	.	.	.	.
.	.	.	.	.	.	8G\	8b-/L 8g/ 8d/	.	.	.	.	.	.	.	.	.	.	.	.	.	.	.	.	.	.	.	.	.	.	.	.	.	.	.	.	.	.	.	.	.	.	.	.	.	.	.	.	.	.	.	.
.	.	.	.	.	.	8G\J	8b-/J 8g/ 8d/	.	.	.	.	.	.	.	.	.	.	.	.	.	.	.	.	.	.	.	.	.	.	.	.	.	.	.	.	.	.	.	.	.	.	.	.	.	.	.	.	.	.	.	.
=11	=11	=11	=11	=11	=11	=11	=11	=11	=11	=11	=11	=11	=11	=11	=11	=11	=11	=11	=11	=11	=11	=11	=11	=11	=11	=11	=11	=11	=11	=11	=11	=11	=11	=11	=11	=11	=11	=11	=11	=11	=11	=11	=11	=11	=11	=11	=11	=11	=11	=11	=11
!	!	!	!	!	!	!	!	!	!	!	!	!	!	!	!	!	!	!	!	!	!	!	!	!	!	!	!	!LO:DY:rj	!	!	!	!	!	!	!	!	!LO:DY:rj	!	!	!	!	!	!	!	!	!	!	!	!	!	!
2.ryy	2.ryy	2.ryy	2.ryy	2.ryy	4.C/	8C\L	8r	.	2.ryy	.	2.ryy	.	.	2.r	.	.	2.r	.	.	2.r	.	.	2.r	.	.	4.C/	te-	p	4.e-\	.	.	4.g/	.	.	4.a/	te-	p	2.ryy	2.ryy	2.ryy	2.ryy	2.ryy	.	2.ryy	.	2.ryy	.	2.ryy	.	2.ryy	.
.	.	.	.	.	.	8c\	8a/L 8g/ 8e-/	.	.	.	.	.	.	.	.	.	.	.	.	.	.	.	.	.	.	.	.	.	.	.	.	.	.	.	.	.	.	.	.	.	.	.	.	.	.	.	.	.	.	.	.
.	.	.	.	.	.	8c\J	8a/J 8g/ 8e-/	.	.	.	.	.	.	.	.	.	.	.	.	.	.	.	.	.	.	.	.	.	.	.	.	.	.	.	.	.	.	.	.	.	.	.	.	.	.	.	.	.	.	.	.
.	.	.	.	.	4.C#X/	8C#\L	8r	.	.	.	.	.	.	.	.	.	.	.	.	.	.	.	.	.	.	4C#X/	-cum	.	4en\	.	.	4g/	.	.	4a/	-cum	.	.	.	.	.	.	.	.	.	.	.	.	.	.	.
.	.	.	.	.	.	8c#X\	8a/L 8g/ 8en/	.	.	.	.	.	.	.	.	.	.	.	.	.	.	.	.	.	.	.	.	.	.	.	.	.	.	.	.	.	.	.	.	.	.	.	.	.	.	.	.	.	.	.	.
.	.	.	.	.	.	8c#\J	8a/J 8g/ 8e/	.	.	.	.	.	.	.	.	.	.	.	.	.	.	.	.	.	.	8C#/	plan-	.	8e\	.	.	8g/	.	.	8a/	plan-	.	.	.	.	.	.	.	.	.	.	.	.	.	.	.
*	*	*	*	*	*v	*v	*	*	*	*	*	*	*	*	*	*	*	*	*	*	*	*	*	*	*	*	*	*	*	*	*	*	*	*	*	*	*	*	*	*	*	*	*	*	*	*	*	*	*	*	*
=12	=12	=12	=12	=12	=12	=12	=12	=12	=12	=12	=12	=12	=12	=12	=12	=12	=12	=12	=12	=12	=12	=12	=12	=12	=12	=12	=12	=12	=12	=12	=12	=12	=12	=12	=12	=12	=12	=12	=12	=12	=12	=12	=12	=12	=12	=12	=12	=12	=12	=12
*	*	*	*	*	*	*^	*	*	*	*	*	*	*	*	*	*	*	*	*	*	*	*	*	*	*	*	*	*	*	*	*	*	*	*	*	*	*	*	*	*	*	*	*	*	*	*	*	*	*	*
2.ryy	2.ryy	2.ryy	2.ryy	2.ryy	8D\	8r	4ryy	.	2.ryy	.	2.ryy	.	.	4r	.	.	4r	.	.	4r	.	.	4r	.	.	4.D\	-ge-	.	4.d\	.	.	(>4g/	.	.	4.a/	-ge-	.	2.ryy	2.ryy	2.ryy	2.ryy	2.ryy	.	2.ryy	.	2.ryy	.	2.ryy	.	2.ryy	.
.	.	.	.	.	8r	8a/L 8g/ 8d/	.	.	.	.	.	.	.	.	.	.	.	.	.	.	.	.	.	.	.	.	.	.	.	.	.	.	.	.	.	.	.	.	.	.	.	.	.	.	.	.	.	.	.	.	.
.	.	.	.	.	8D/ 8DD/	8a/J	16f#X\LL	.	.	.	.	.	.	8r	.	.	8r	.	.	8r	.	.	8r	.	.	.	.	.	.	.	.	16f#X/LL	.	.	.	.	.	.	.	.	.	.	.	.	.	.	.	.	.	.	.
.	.	.	.	.	.	.	16en\JJ	.	.	.	.	.	.	.	.	.	.	.	.	.	.	.	.	.	.	.	.	.	.	.	.	16en/JJ	.	.	.	.	.	.	.	.	.	.	.	.	.	.	.	.	.	.	.
.	.	.	.	.	4D/ 4DD/	4dd/ 4f#/ 4d/	4ryy	.	.	.	.	.	.	4r	.	<	4r	.	.	4r	.	.	4r	.	<	4D\	-re	.	4d\	.	.	4f#/)	.	.	4dd\	-re	.	.	.	.	.	.	.	.	.	.	.	.	.	.	.
.	.	.	.	.	8B-\ 8BB-\	8dd/ 8g/ 8d/	8ryy	.	.	.	.	.	.	[8B-\	Vir-	[[	(8d\	.	.	[8g/	.	.	[8dd\	Vir-	[[	8r	.	.	8r	.	.	8r	.	.	8r	.	.	.	.	.	.	.	.	.	.	.	.	.	.	.	.
*	*	*	*	*	*	*v	*v	*	*	*	*	*	*	*	*	*	*	*	*	*	*	*	*	*	*	*	*	*	*	*	*	*	*	*	*	*	*	*	*	*	*	*	*	*	*	*	*	*	*	*	*
!!LO:PB:g=original
=13	=13	=13	=13	=13	=13	=13	=13	=13	=13	=13	=13	=13	=13	=13	=13	=13	=13	=13	=13	=13	=13	=13	=13	=13	=13	=13	=13	=13	=13	=13	=13	=13	=13	=13	=13	=13	=13	=13	=13	=13	=13	=13	=13	=13	=13	=13	=13	=13	=13	=13
!	!	!	!	!	!	!	!	!	!	!	!	!	!	!	!	!	!	!	!	!	!	!	!	!LO:DY:a	!	!	!	!	!	!	!	!	!	!	!	!	!	!	!	!	!	!	!	!	!	!	!	!	!	!
2.ryy	2.ryy	2.ryy	2.ryy	2.ryy	8B-\L 8BB-\	8dd/L 8g/ 8d/	.	2.r	.	2.r	.	.	8B-\]	.	.	8d\)	.	.	8g/]	.	.	8dd\]	.	f	2.r	.	.	2.r	.	.	2.r	.	.	2.r	.	.	2.ryy	2.ryy	2.ryy	2.ryy	2.ryy	.	2.ryy	.	2.ryy	.	2.ryy	.	2.ryy	.
!	!	!	!	!	!	!	!	!	!	!	!	!	!	!	!LO:DY:rj	!	!	!	!	!	!	!	!	!	!	!	!	!	!	!	!	!	!	!	!	!	!	!	!	!	!	!	!	!	!	!	!	!	!	!
.	.	.	.	.	8r	8r	.	.	.	.	.	.	8B-\	-go	f	8d\	.	.	8g/	.	.	8dd\	-go	.	.	.	.	.	.	.	.	.	.	.	.	.	.	.	.	.	.	.	.	.	.	.	.	.	.	.
.	.	.	.	.	8A\J 8AA\	8cc/J 8f#X/ 8d/	.	.	.	.	.	.	8A\	vir-	.	8d\	.	.	8f#X/	.	.	8cc\	vir-	.	.	.	.	.	.	.	.	.	.	.	.	.	.	.	.	.	.	.	.	.	.	.	.	.	.	.
.	.	.	.	.	8G/L 8GG/	8r	.	.	.	.	.	.	8G\	-gi-	.	8d\	.	.	8g/	.	.	8cc\	-gi-	.	.	.	.	.	.	.	.	.	.	.	.	.	.	.	.	.	.	.	.	.	.	.	.	.	.	.
.	.	.	.	.	8r	8b-/L 8g/ 8d/	.	.	.	.	.	.	8G\	-num	.	8d\	.	.	8g/	.	.	8b-\	-num	.	.	.	.	.	.	.	.	.	.	.	.	.	.	.	.	.	.	.	.	.	.	.	.	.	.	.
!	!	!	!	!	!	!	!	!	!	!	!	!	!LO:SIC:v:l:s=prae-	!	!	!	!	!	!	!	!	!LO:SIC:v:l:s=prae-	!	!	!	!	!	!	!	!	!	!	!	!	!	!	!	!	!	!	!	!	!	!	!	!	!	!	!	!
.	.	.	.	.	8D/J 8DD/	8a/J 8f#/ 8d/	.	.	.	.	.	.	8D\	proe-	.	8d\	.	.	8f#/	.	.	8a\	proe-	.	.	.	.	.	.	.	.	.	.	.	.	.	.	.	.	.	.	.	.	.	.	.	.	.	.	.
=14	=14	=14	=14	=14	=14	=14	=14	=14	=14	=14	=14	=14	=14	=14	=14	=14	=14	=14	=14	=14	=14	=14	=14	=14	=14	=14	=14	=14	=14	=14	=14	=14	=14	=14	=14	=14	=14	=14	=14	=14	=14	=14	=14	=14	=14	=14	=14	=14	=14	=14
!	!	!	!	!	!	!	!	!	!	!	!	!	!LO:SIC:v:l:s=-cla-	!	!	!	!	!	!	!	!	!LO:SIC:v:l:s=-cla-	!	!	!	!	!	!	!	!	!	!	!	!	!	!	!	!	!	!	!	!	!	!	!	!	!	!	!	!
2.ryy	2.ryy	2.ryy	2.ryy	2.ryy	8E-/L 8EE-/	8r	.	2.ryy	.	2.ryy	.	.	(4E-\	-cle-	.	(4B-\	.	.	(4g/	.	.	(>4g/	-cle-	.	2.ryy	.	.	2.ryy	.	.	2.ryy	.	.	2.ryy	.	.	2.ryy	2.ryy	2.ryy	2.ryy	2.ryy	.	2.ryy	.	2.ryy	.	2.ryy	.	2.ryy	.
.	.	.	.	.	8r	8g/L 8e-/ 8B-/	.	.	.	.	.	.	.	.	.	.	.	.	.	.	.	.	.	.	.	.	.	.	.	.	.	.	.	.	.	.	.	.	.	.	.	.	.	.	.	.	.	.	.	.
.	.	.	.	.	8C/J 8CC/	8a/J 8e-/ 8c/	.	.	.	.	.	.	8C\)	.	.	8c\)	.	.	8e-/)	.	.	8a/)	.	.	.	.	.	.	.	.	.	.	.	.	.	.	.	.	.	.	.	.	.	.	.	.	.	.	.	.
.	.	.	.	.	4D/ 4DD/	4f#X/ 4d/ 4A/	.	.	.	.	.	.	(4D/	-ra	.	4.A\	.	.	4.d/	.	.	4.f#X/	-ra	.	.	.	.	.	.	.	.	.	.	.	.	.	.	.	.	.	.	.	.	.	.	.	.	.	.	.
.	.	.	.	.	8r	8r	.	.	.	.	.	.	8C/)	.	.	.	.	.	.	.	.	.	.	.	.	.	.	.	.	.	.	.	.	.	.	.	.	.	.	.	.	.	.	.	.	.	.	.	.	.
=15	=15	=15	=15	=15	=15	=15	=15	=15	=15	=15	=15	=15	=15	=15	=15	=15	=15	=15	=15	=15	=15	=15	=15	=15	=15	=15	=15	=15	=15	=15	=15	=15	=15	=15	=15	=15	=15	=15	=15	=15	=15	=15	=15	=15	=15	=15	=15	=15	=15	=15
2.ryy	2.ryy	2.ryy	2.ryy	2.ryy	2.r	2.r	.	2.ryy	.	2.ryy	.	.	4BB-/	Mi-	.	4G/	.	.	4d/	.	.	4g/	Mi-	.	2.ryy	.	.	2.ryy	.	.	2.ryy	.	.	2.ryy	.	.	2.ryy	2.ryy	2.ryy	2.ryy	2.ryy	.	2.ryy	.	2.ryy	.	2.ryy	.	2.ryy	.
.	.	.	.	.	.	.	.	.	.	.	.	.	8F#X\	-hi	.	8d\	.	.	8d/	.	.	8a/	-hi	.	.	.	.	.	.	.	.	.	.	.	.	.	.	.	.	.	.	.	.	.	.	.	.	.	.	.
.	.	.	.	.	.	.	.	.	.	.	.	.	8G\	jam	.	8d\	.	.	8g/	.	.	8b-\	jam	.	.	.	.	.	.	.	.	.	.	.	.	.	.	.	.	.	.	.	.	.	.	.	.	.	.	.
!	!	!	!	!	!	!	!	!	!	!	!	!	!	!	!	!	!	!	!	!	!	!	!	!LO:DY:a	!	!	!	!	!	!	!	!	!	!	!	!	!	!	!	!	!	!	!	!	!	!	!	!	!	!
.	.	.	.	.	.	.	.	.	.	.	.	.	8G\	su-	.	8d\	.	.	8g/	.	.	8b-\	su-	<	.	.	.	.	.	.	.	.	.	.	.	.	.	.	.	.	.	.	.	.	.	.	.	.	.	.
.	.	.	.	.	.	.	.	.	.	.	.	.	8E-\	-a	.	8c\	.	.	8g/	.	.	8cc\	-a	[[	.	.	.	.	.	.	.	.	.	.	.	.	.	.	.	.	.	.	.	.	.	.	.	.	.	.
=16	=16	=16	=16	=16	=16	=16	=16	=16	=16	=16	=16	=16	=16	=16	=16	=16	=16	=16	=16	=16	=16	=16	=16	=16	=16	=16	=16	=16	=16	=16	=16	=16	=16	=16	=16	=16	=16	=16	=16	=16	=16	=16	=16	=16	=16	=16	=16	=16	=16	=16
!	!	!	!	!	!	!	!	!	!	!	!	!	!	!	!	!	!	!	!	!	!	!	!	!LO:DY:a	!	!	!	!	!	!	!	!	!	!	!	!	!	!	!	!	!	!	!	!	!	!	!	!	!	!
2.ryy	2.ryy	2.ryy	2.ryy	2.ryy	2.r	2.r	.	2.ryy	.	2.ryy	.	.	4.D\	ma-	.	4.A\	.	.	4.f#X/	.	.	(4dd\	ma-	>	2.ryy	.	.	2.ryy	.	.	2.ryy	.	.	2.ryy	.	.	2.ryy	2.ryy	2.ryy	2.ryy	2.ryy	.	2.ryy	.	2.ryy	.	2.ryy	.	2.ryy	.
.	.	.	.	.	.	.	.	.	.	.	.	.	.	.	.	.	.	.	.	.	.	16cc\LL	.	.	.	.	.	.	.	.	.	.	.	.	.	.	.	.	.	.	.	.	.	.	.	.	.	.	.	.
.	.	.	.	.	.	.	.	.	.	.	.	.	.	.	.	.	.	.	.	.	.	16b-\JJ)	.	]	.	.	.	.	.	.	.	.	.	.	.	.	.	.	.	.	.	.	.	.	.	.	.	.	.	.
.	.	.	.	.	.	.	.	.	.	.	.	.	4.D\	-ra	.	4.d\	.	.	4.f#/	.	.	4.a/	-ra	.	.	.	.	.	.	.	.	.	.	.	.	.	.	.	.	.	.	.	.	.	.	.	.	.	.	.
!!LO:PB:g=original
=17	=17	=17	=17	=17	=17	=17	=17	=17	=17	=17	=17	=17	=17	=17	=17	=17	=17	=17	=17	=17	=17	=17	=17	=17	=17	=17	=17	=17	=17	=17	=17	=17	=17	=17	=17	=17	=17	=17	=17	=17	=17	=17	=17	=17	=17	=17	=17	=17	=17	=17
*	*	*	*	*	*^	*	*	*	*	*	*	*	*	*	*	*	*	*	*	*	*	*	*	*	*	*	*	*	*	*	*	*	*	*	*	*	*	*	*	*	*	*	*	*	*	*	*	*	*	*
!	!	!	!	!	!	!	!	!	!	!	!	!	!	!	!	!LO:DY:rj	!	!	!	!	!	!	!	!	!LO:DY:rj	!	!	!LO:DY:rj	!	!	!	!	!	!	!	!	!LO:DY:b:rj	!	!	!	!	!	!	!	!	!	!	!	!	!	!
2.ryy	2.ryy	2.ryy	2.ryy	2.ryy	4.C/	8C\L	8r	.	2.r	.	2.r	.	.	4.C^>/	fac	f	2.r	.	.	4.g/	.	.	4.ee-\	fac	f	4.C^>/	fac	f	4.c\	.	.	4.g/	.	.	4.ee-^\	fac	f	2.ryy	2.ryy	2.ryy	2.ryy	2.r	.	2.r	.	2.r	.	2.r	.	2.r	.
.	.	.	.	.	.	8c\	8ee-/L 8cc/ 8g/ 8e-/	.	.	.	.	.	.	.	.	.	.	.	.	.	.	.	.	.	.	.	.	.	.	.	.	.	.	.	.	.	.	.	.	.	.	.	.	.	.	.	.	.	.	.	.
.	.	.	.	.	.	8c\J	8ee-/J 8cc/ 8g/ 8e-/	.	.	.	.	.	.	.	.	.	.	.	.	.	.	.	.	.	.	.	.	.	.	.	.	.	.	.	.	.	.	.	.	.	.	.	.	.	.	.	.	.	.	.	.
.	.	.	.	.	4.BB-/	8BB-\L	8r	.	.	.	.	.	.	4.BB-^>/	me	.	.	.	.	4.g/	.	.	4.dd\	me	.	4.BB-^>/	me	.	4.d\	.	.	4.g/	.	.	4.dd^\	me	.	.	.	.	.	.	.	.	.	.	.	.	.	.	.
.	.	.	.	.	.	8B-\	8dd/L 8g/ 8d/	.	.	.	.	.	.	.	.	.	.	.	.	.	.	.	.	.	.	.	.	.	.	.	.	.	.	.	.	.	.	.	.	.	.	.	.	.	.	.	.	.	.	.	.
.	.	.	.	.	.	8B-\J	8dd/J 8g/ 8d/	.	.	.	.	.	.	.	.	.	.	.	.	.	.	.	.	.	.	.	.	.	.	.	.	.	.	.	.	.	.	.	.	.	.	.	.	.	.	.	.	.	.	.	.
=18	=18	=18	=18	=18	=18	=18	=18	=18	=18	=18	=18	=18	=18	=18	=18	=18	=18	=18	=18	=18	=18	=18	=18	=18	=18	=18	=18	=18	=18	=18	=18	=18	=18	=18	=18	=18	=18	=18	=18	=18	=18	=18	=18	=18	=18	=18	=18	=18	=18	=18	=18
2.ryy	2.ryy	2.ryy	2.ryy	2.ryy	4.AA/	8AA\L	8r	.	2.ryy	.	2.ryy	.	.	(4AA^>/	fac	.	4.d\	.	.	4.f#X/	.	.	(4dd\	fac	.	(4AA^>/	fac	.	4.d\	.	.	4.f#X/	.	.	(4dd^\	fac	.	2.ryy	2.ryy	2.ryy	2.ryy	2.ryy	.	2.ryy	.	2.ryy	.	2.ryy	.	2.ryy	.
.	.	.	.	.	.	8A\	8cc/L 8f/ 8d/	.	.	.	.	.	.	.	.	.	.	.	.	.	.	.	.	.	.	.	.	.	.	.	.	.	.	.	.	.	.	.	.	.	.	.	.	.	.	.	.	.	.	.	.
.	.	.	.	.	.	8A\J	8cc/J 8f/ 8d/	.	.	.	.	.	.	8A\)	.	.	.	.	.	.	.	.	8cc\)	.	.	8A\)	.	.	.	.	.	.	.	.	8cc\)	.	.	.	.	.	.	.	.	.	.	.	.	.	.	.	.
.	.	.	.	.	4.GG/	8GG\L	8r	.	.	.	.	.	.	4.G\	me	.	4.d\	.	.	4.g/	.	.	4.b-\	me	.	4.G\	me	.	4.d\	.	.	4.g/	.	.	4.b-\	me	.	.	.	.	.	.	.	.	.	.	.	.	.	.	.
.	.	.	.	.	.	8G\	8b-/L 8g/ 8d/	.	.	.	.	.	.	.	.	.	.	.	.	.	.	.	.	.	.	.	.	.	.	.	.	.	.	.	.	.	.	.	.	.	.	.	.	.	.	.	.	.	.	.	.
.	.	.	.	.	.	8G\J	8b-/J 8g/ 8d/	.	.	.	.	.	.	.	.	.	.	.	.	.	.	.	.	.	.	.	.	.	.	.	.	.	.	.	.	.	.	.	.	.	.	.	.	.	.	.	.	.	.	.	.
=19	=19	=19	=19	=19	=19	=19	=19	=19	=19	=19	=19	=19	=19	=19	=19	=19	=19	=19	=19	=19	=19	=19	=19	=19	=19	=19	=19	=19	=19	=19	=19	=19	=19	=19	=19	=19	=19	=19	=19	=19	=19	=19	=19	=19	=19	=19	=19	=19	=19	=19	=19
!	!	!	!	!	!	!	!	!	!	!	!	!	!	!	!	!LO:DY:rj	!	!	!	!	!	!	!	!	!LO:DY:rj	!	!	!	!	!	!	!	!	!	!	!	!	!	!	!	!	!	!	!	!	!	!	!	!	!	!
2.ryy	2.ryy	2.ryy	2.ryy	2.ryy	4.C/	8C\L	8r	.	2.ryy	.	2.ryy	.	.	4.C/	te-	p	4.e-\	.	.	4.g/	.	.	4.a/	te-	p	2.r	.	.	2.r	.	.	2.r	.	.	2.r	.	.	2.ryy	2.ryy	2.ryy	2.ryy	2.ryy	.	2.ryy	.	2.ryy	.	2.ryy	.	2.ryy	.
.	.	.	.	.	.	8c\	8a/L 8g/ 8e-/	.	.	.	.	.	.	.	.	.	.	.	.	.	.	.	.	.	.	.	.	.	.	.	.	.	.	.	.	.	.	.	.	.	.	.	.	.	.	.	.	.	.	.	.
.	.	.	.	.	.	8c\J	8a/J 8g/ 8e-/	.	.	.	.	.	.	.	.	.	.	.	.	.	.	.	.	.	.	.	.	.	.	.	.	.	.	.	.	.	.	.	.	.	.	.	.	.	.	.	.	.	.	.	.
.	.	.	.	.	4.C#X/	8C#\L	8r	.	.	.	.	.	.	4C#X/	-cum	.	4en\	.	.	4g/	.	.	4a/	-cum	.	.	.	.	.	.	.	.	.	.	.	.	.	.	.	.	.	.	.	.	.	.	.	.	.	.	.
.	.	.	.	.	.	8c#X\	8a/L 8g/ 8en/	.	.	.	.	.	.	.	.	.	.	.	.	.	.	.	.	.	.	.	.	.	.	.	.	.	.	.	.	.	.	.	.	.	.	.	.	.	.	.	.	.	.	.	.
.	.	.	.	.	.	8c#\J	8a/J 8g/ 8e/	.	.	.	.	.	.	8C#/	plan-	.	8e\	.	.	8g/	.	.	8a/	plan-	.	.	.	.	.	.	.	.	.	.	.	.	.	.	.	.	.	.	.	.	.	.	.	.	.	.	.
*	*	*	*	*	*v	*v	*	*	*	*	*	*	*	*	*	*	*	*	*	*	*	*	*	*	*	*	*	*	*	*	*	*	*	*	*	*	*	*	*	*	*	*	*	*	*	*	*	*	*	*	*
=20	=20	=20	=20	=20	=20	=20	=20	=20	=20	=20	=20	=20	=20	=20	=20	=20	=20	=20	=20	=20	=20	=20	=20	=20	=20	=20	=20	=20	=20	=20	=20	=20	=20	=20	=20	=20	=20	=20	=20	=20	=20	=20	=20	=20	=20	=20	=20	=20	=20	=20
*	*	*	*	*	*	*^	*	*	*	*	*	*	*	*	*	*	*	*	*	*	*	*	*	*	*	*	*	*	*	*	*	*	*	*	*	*	*	*	*	*	*	*	*	*	*	*	*	*	*	*
2.ryy	2.ryy	2.ryy	2.ryy	2.ryy	8D/	8r	4ryy	.	2.ryy	.	2.ryy	.	.	4.D\	-ge-	.	4.d\	.	.	(4g/	.	.	4.a/	-ge-	.	4r	.	.	4r	.	.	4r	.	.	4r	.	.	2.ryy	2.ryy	2.ryy	2.ryy	2.ryy	.	2.ryy	.	2.ryy	.	2.ryy	.	2.ryy	.
.	.	.	.	.	8r	8a/L 8g/ 8d/	.	.	.	.	.	.	.	.	.	.	.	.	.	.	.	.	.	.	.	.	.	.	.	.	.	.	.	.	.	.	.	.	.	.	.	.	.	.	.	.	.	.	.	.	.
.	.	.	.	.	8D/ 8DD/	8a/J	16f#X\LL	.	.	.	.	.	.	.	.	.	.	.	.	16f#X/LL	.	.	.	.	.	8r	.	.	8r	.	.	8r	.	.	8r	.	.	.	.	.	.	.	.	.	.	.	.	.	.	.	.
.	.	.	.	.	.	.	16en\JJ	.	.	.	.	.	.	.	.	.	.	.	.	16en/JJ)	.	.	.	.	.	.	.	.	.	.	.	.	.	.	.	.	.	.	.	.	.	.	.	.	.	.	.	.	.	.	.
!	!	!	!	!	!	!	!	!	!	!	!	!	!	!	!	!	!	!	!	!	!	!	!	!	!	!	!	!	!	!	!LO:HP:b	!	!	!	!	!	!LO:DY:a	!	!	!	!	!	!	!	!	!	!	!	!	!	!
.	.	.	.	.	4D/ 4DD/	4dd/ 4f#/	4ryy	.	.	.	.	.	.	8D\L	-re	.	4d\	.	.	4f#/	.	.	4dd\	-re	.	4r	.	.	4r	.	<	4r	.	.	4r	.	<	.	.	.	.	.	.	.	.	.	.	.	.	.	.
!	!	!	!	!	!	!	!	!	!	!	!	!	!	!	!	!LO:HP:b	!	!	!	!	!	!	!	!	!	!	!	!	!	!	!	!	!	!	!	!	!	!	!	!	!	!	!	!	!	!	!	!	!	!	!
.	.	.	.	.	.	.	.	.	.	.	.	.	.	8d\J	.	<	.	.	.	.	.	.	.	.	.	.	.	.	.	.	.	.	.	.	.	.	.	.	.	.	.	.	.	.	.	.	.	.	.	.	.
.	.	.	.	.	8r	8r	8ryy	.	.	.	.	.	.	(8c\	fac	.	[8d\	.	.	(8f#/	.	.	8dd\	fac	.	(8c\	te	.	[8d\	.	[[	8f#X/	.	.	[8dd\	fac	[[	.	.	.	.	.	.	.	.	.	.	.	.	.	.
*	*	*	*	*	*	*v	*v	*	*	*	*	*	*	*	*	*	*	*	*	*	*	*	*	*	*	*	*	*	*	*	*	*	*	*	*	*	*	*	*	*	*	*	*	*	*	*	*	*	*	*	*
=21	=21	=21	=21	=21	=21	=21	=21	=21	=21	=21	=21	=21	=21	=21	=21	=21	=21	=21	=21	=21	=21	=21	=21	=21	=21	=21	=21	=21	=21	=21	=21	=21	=21	=21	=21	=21	=21	=21	=21	=21	=21	=21	=21	=21	=21	=21	=21	=21	=21	=21
!	!	!	!	!	!	!	!	!	!	!	!	!	!	!	!	!	!	!	!	!	!	!	!	!	!	!	!	!	!	!	!	!	!	!	!	!LO:DY:rj	!	!	!	!	!	!	!	!	!	!	!	!	!	!
2.ryy	2.ryy	2.ryy	2.ryy	2.ryy	2.r	2.r	.	2.ryy	.	2.ryy	.	.	4B-\)	.	[	4d\]	.	.	4g/)	.	.	(8.dd\L	.	.	4B-\)	.	.	4d\]	.	.	4g/	.	.	(8.dd\L]	.	f	2.ryy	2.ryy	2.ryy	2.ryy	2.ryy	.	2.ryy	.	2.ryy	.	2.ryy	.	2.ryy	.
!	!	!	!	!	!	!	!	!	!	!	!	!	!	!	!	!	!	!	!	!	!	!	!	!	!	!	!	!	!	!LO:DY:b	!	!	!	!	!	!	!	!	!	!	!	!	!	!	!	!	!	!	!	!
.	.	.	.	.	.	.	.	.	.	.	.	.	.	.	f	.	.	.	.	.	.	16ee-\L	.	.	.	.	.	.	.	f	.	.	.	16ee-\L	.	.	.	.	.	.	.	.	.	.	.	.	.	.	.	.
.	.	.	.	.	.	.	.	.	.	.	.	.	8B-\	me	.	8d\	.	.	8g/	.	.	16dd\JJ)	.	.	8B-\	.	.	8d\	.	.	8g/	.	.	16dd\JJ)	.	.	.	.	.	.	.	.	.	.	.	.	.	.	.	.
.	.	.	.	.	.	.	.	.	.	.	.	.	.	.	.	.	.	.	.	.	.	16g/	me	.	.	.	.	.	.	.	.	.	.	16g/	me	.	.	.	.	.	.	.	.	.	.	.	.	.	.	.
!	!	!	!	!	!	!	!	!	!	!	!	!	!	!	!	!LO:ACC:color=grey	!	!	!	!	!	!	!	!	!	!	!	!	!	!	!LO:N:vis=4.	!	!	!	!	!	!	!	!	!	!	!	!	!	!	!	!	!	!	!
.	.	.	.	.	.	.	.	.	.	.	.	.	(8.Bn\L	te-	.	(8.dn\L	.	.	4g/	.	.	(4gg\	te-	.	(8.Bn\L	.	.	(8.d\L	.	.	4g/	.	.	4gg\	te-	.	.	.	.	.	.	.	.	.	.	.	.	.	.	.
.	.	.	.	.	.	.	.	.	.	.	.	.	16G\Jk)	.	.	16Bn\Jk)	.	.	.	.	.	.	.	.	16G\Jk)	.	.	16Bn\Jk)	.	.	.	.	.	.	.	.	.	.	.	.	.	.	.	.	.	.	.	.	.	.
.	.	.	.	.	.	.	.	.	.	.	.	.	(16A\LL	-cum	.	(16c\LL	.	.	8g/	.	.	8ff\)	-cum	.	(16A\LL	.	.	(16c\LL	.	.	8g/	.	.	8ff\	-cum	.	.	.	.	.	.	.	.	.	.	.	.	.	.	.
.	.	.	.	.	.	.	.	.	.	.	.	.	16B\JJ)	.	.	16d\JJ)	.	.	.	.	.	.	.	.	16B\JJ)	.	.	16d\JJ)	.	.	.	.	.	.	.	.	.	.	.	.	.	.	.	.	.	.	.	.	.	.
!!LO:PB:g=original
=22	=22	=22	=22	=22	=22	=22	=22	=22	=22	=22	=22	=22	=22	=22	=22	=22	=22	=22	=22	=22	=22	=22	=22	=22	=22	=22	=22	=22	=22	=22	=22	=22	=22	=22	=22	=22	=22	=22	=22	=22	=22	=22	=22	=22	=22	=22	=22	=22	=22	=22
2.ryy	2.ryy	2.ryy	2.ryy	2.ryy	2.r	2.r	.	2.ryy	.	2.ryy	.	.	4c\	fac	.	4c\	.	.	4g/	fac	.	(8.ee-\L	fac	.	4c\	fac	.	4c\	.	.	4g/	fac	.	(8.ee-\L	fac	.	2.ryy	2.ryy	2.ryy	2.ryy	2.ryy	.	2.ryy	.	2.ryy	.	2.ryy	.	2.ryy	.
.	.	.	.	.	.	.	.	.	.	.	.	.	.	.	.	.	.	.	.	.	.	16cc\Jk)	.	.	.	.	.	.	.	.	.	.	.	16dd\Jk)	.	.	.	.	.	.	.	.	.	.	.	.	.	.	.	.
.	.	.	.	.	.	.	.	.	.	.	.	.	8B-\	me	.	8c\	.	.	8g/	me	.	(16dd\LL	me	.	8B-\	me	.	8c\	.	.	8g/	me	.	(16dd\LL	me	.	.	.	.	.	.	.	.	.	.	.	.	.	.	.
.	.	.	.	.	.	.	.	.	.	.	.	.	.	.	.	.	.	.	.	.	.	16ee-\JJ)	.	.	.	.	.	.	.	.	.	.	.	16ee-\JJ)	.	.	.	.	.	.	.	.	.	.	.	.	.	.	.	.
.	.	.	.	.	.	.	.	.	.	.	.	.	(8.A\L	te-	.	(8.c\L	.	.	[4f/	te-	.	4ff\	te-	.	8.A\L	te-	.	(8.c\L	.	.	(4f/	te-	.	(4ff\	te-	.	.	.	.	.	.	.	.	.	.	.	.	.	.	.
.	.	.	.	.	.	.	.	.	.	.	.	.	16F\Jk)	.	.	16A\Jk)	.	.	.	.	.	.	.	.	16F\Jk	.	.	16A\Jk)	.	.	.	.	.	.	.	.	.	.	.	.	.	.	.	.	.	.	.	.	.	.
.	.	.	.	.	.	.	.	.	.	.	.	.	(16G\LL	-cum	.	(16B-\LL	.	.	8f/]	.	.	8ee-\	-cum	.	16G\LL	-cum	.	(16B-\LL	.	.	8f/)	.	.	8ee-\)	-cum	.	.	.	.	.	.	.	.	.	.	.	.	.	.	.
.	.	.	.	.	.	.	.	.	.	.	.	.	16A\JJ)	.	.	16c\JJ)	.	.	.	.	.	.	.	.	16A\JJ	.	.	16c\JJ)	.	.	.	.	.	.	.	.	.	.	.	.	.	.	.	.	.	.	.	.	.	.
=23	=23	=23	=23	=23	=23	=23	=23	=23	=23	=23	=23	=23	=23	=23	=23	=23	=23	=23	=23	=23	=23	=23	=23	=23	=23	=23	=23	=23	=23	=23	=23	=23	=23	=23	=23	=23	=23	=23	=23	=23	=23	=23	=23	=23	=23	=23	=23	=23	=23	=23
2.ryy	2.ryy	2.ryy	2.ryy	2.ryy	2.r	2.r	.	2.ryy	.	2.ryy	.	.	(8.B-\L	fac	.	4d\	.	.	8g/	-cum	.	8.dd\L	fac	.	(8.B-\L	fac	.	4d\	.	.	8f/	-cum	.	8.dd\L	fac	.	2.ryy	2.ryy	2.ryy	2.ryy	2.ryy	.	2.ryy	.	2.ryy	.	2.ryy	.	2.ryy	.
.	.	.	.	.	.	.	.	.	.	.	.	.	.	.	.	.	.	.	8r	.	.	.	.	.	.	.	.	.	.	.	8r	.	.	.	.	.	.	.	.	.	.	.	.	.	.	.	.	.	.	.
.	.	.	.	.	.	.	.	.	.	.	.	.	16F#X\Jk)	.	.	.	.	.	.	.	.	16a\Jk	.	.	16F#X\Jk)	.	.	.	.	.	.	.	.	16a\Jk	.	.	.	.	.	.	.	.	.	.	.	.	.	.	.	.
.	.	.	.	.	.	.	.	.	.	.	.	.	(16G\LL	me	.	8d\	.	.	8r	.	.	16b-/LL	me	.	(16G\LL	me	.	8d\	.	.	8r	.	.	16b-/LL	me	.	.	.	.	.	.	.	.	.	.	.	.	.	.	.
.	.	.	.	.	.	.	.	.	.	.	.	.	16Fn\JJ)	.	.	.	.	.	.	.	.	16a/JJ	.	.	16Fn\JJ)	.	.	.	.	.	.	.	.	16a/JJ	.	.	.	.	.	.	.	.	.	.	.	.	.	.	.	.
.	.	.	.	.	.	.	.	.	.	.	.	.	4E-\	te-	.	(8d\L	.	.	8r	.	.	4g/	te-	.	4E-\	te-	.	(8d\L	.	.	8r	.	.	4g/	te-	.	.	.	.	.	.	.	.	.	.	.	.	.	.	.
.	.	.	.	.	.	.	.	.	.	.	.	.	.	.	.	8c\J)	.	.	8r	.	.	.	.	.	.	.	.	8c\J)	.	.	8r	.	.	.	.	.	.	.	.	.	.	.	.	.	.	.	.	.	.	.
.	.	.	.	.	.	.	.	.	.	.	.	.	8C/	-cum	.	(8A\	.	.	(>8e-/	plan-	.	8cc\	-cum	.	8C/	-cum	.	(8A\	.	.	(8e-/	plan-	.	8cc\	-cum	.	.	.	.	.	.	.	.	.	.	.	.	.	.	.
=24	=24	=24	=24	=24	=24	=24	=24	=24	=24	=24	=24	=24	=24	=24	=24	=24	=24	=24	=24	=24	=24	=24	=24	=24	=24	=24	=24	=24	=24	=24	=24	=24	=24	=24	=24	=24	=24	=24	=24	=24	=24	=24	=24	=24	=24	=24	=24	=24	=24	=24
!	!	!	!	!	!	!	!	!	!	!	!	!	!	!	!	!	!	!	!	!	!	!	!	!	!	!	!	!	!	!	!	!	!	!LO:TX:a:i:t=rall.	!	!	!	!	!	!	!	!	!	!	!	!	!	!	!	!
2.ryy	2.ryy	2.ryy	2.ryy	2.ryy	2.r;	2.r;	.	2.ryy	.	2.ryy	.	.	[4D\	plan-	.	(4G/)	.	.	(4d/)	.	.	(4b-\	plan-	.	[4D\	plan-	.	4G/)	.	.	(4d/)	.	.	(4b-\	plan-	.	2.ryy	2.ryy	2.ryy	2.ryy	2.ryy	.	2.ryy	.	2.ryy	.	2.ryy	.	2.ryy	.
.	.	.	.	.	.	.	.	.	.	.	.	.	.	.	.	.	.	.	.	.	.	8qb-/)	.	.	.	.	.	.	.	.	.	.	.	8qb-/	.	.	.	.	.	.	.	.	.	.	.	.	.	.	.	.
.	.	.	.	.	.	.	.	.	.	.	.	.	16.D\]	.	.	16.F#X/)	.	.	16.c/)	-ge-	.	16.a/	.	.	16.D\]	.	.	16.F#X/	.	.	16.c/)	.	.	16.a/)	.	.	.	.	.	.	.	.	.	.	.	.	.	.	.	.
.	.	.	.	.	.	.	.	.	.	.	.	.	32E-\	-ge-	.	32G/	.	.	32B-/	.	.	32g/	-ge-	.	32E-\	-ge-	.	32G/	.	.	32B-/	-ge-	.	32g/	-ge-	.	.	.	.	.	.	.	.	.	.	.	.	.	.	.
.	.	.	.	.	.	.	.	.	.	.	.	.	8E-;\	-re	.	8G;</	.	.	8B-;/	-[re]	.	8g;/	-re	.	8E-;\	-re	.	8G;/	.	.	8B-;/	-re	.	8g;/	-re	.	.	.	.	.	.	.	.	.	.	.	.	.	.	.
!	!	!	!	!	!	!	!	!	!	!	!	!	!	!	!	!	!	!	!	!	!	!	!	!	!	!	!	!	!	!	!	!	!	!	!	!LO:DY:rj	!	!	!	!	!	!	!	!	!	!	!	!	!	!
.	.	.	.	.	.	.	.	.	.	.	.	.	8r	.	.	8r	.	.	8r	.	.	8r	.	.	8E-\	fac	.	8G/	.	.	8B-/	.	.	8g/	fac	p	.	.	.	.	.	.	.	.	.	.	.	.	.	.
.	.	.	.	.	.	.	.	.	.	.	.	.	8r	.	.	8r	.	.	8r	.	.	8r	.	.	8C/	me	.	8c\	.	.	8e-/	.	.	8a/	me	.	.	.	.	.	.	.	.	.	.	.	.	.	.	.
=25	=25	=25	=25	=25	=25	=25	=25	=25	=25	=25	=25	=25	=25	=25	=25	=25	=25	=25	=25	=25	=25	=25	=25	=25	=25	=25	=25	=25	=25	=25	=25	=25	=25	=25	=25	=25	=25	=25	=25	=25	=25	=25	=25	=25	=25	=25	=25	=25	=25	=25
!	!	!	!	!	!	!	!	!	!	!	!	!	!	!	!	!	!	!	!	!	!	!	!	!	!	!	!	!	!	!	!	!	!	!LO:TX:a:i:t=a tempo	!	!	!	!	!	!	!	!	!	!	!	!	!	!	!	!
2.ryy	2.ryy	2.ryy	2.ryy	2.ryy	2.r	2.r	.	2.ryy	.	2.ryy	.	.	2.r	.	.	2.r	.	.	2.r	.	.	2.r	.	.	4D\	te-	.	4B-\	.	.	4d/	.	.	4d/	te-	.	2.ryy	2.ryy	2.ryy	2.ryy	2.ryy	.	2.ryy	.	2.ryy	.	2.ryy	.	2.ryy	.
.	.	.	.	.	.	.	.	.	.	.	.	.	.	.	.	.	.	.	.	.	.	.	.	.	8D\	-cum	.	8B-\	.	.	8d/	.	.	8g/	-cum	.	.	.	.	.	.	.	.	.	.	.	.	.	.	.
.	.	.	.	.	.	.	.	.	.	.	.	.	.	.	.	.	.	.	.	.	.	.	.	.	4D\	plan-	.	(8.d\L	.	.	4d/	.	.	(8.b-/L	plan-	.	.	.	.	.	.	.	.	.	.	.	.	.	.	.
.	.	.	.	.	.	.	.	.	.	.	.	.	.	.	.	.	.	.	.	.	.	.	.	.	.	.	.	16c\Jk)	.	.	.	.	.	16a/Jk)	.	.	.	.	.	.	.	.	.	.	.	.	.	.	.	.
.	.	.	.	.	.	.	.	.	.	.	.	.	.	.	.	.	.	.	.	.	.	.	.	.	8D\	-ge-	.	(16B-\LL	.	.	8d/	.	.	(16g/LL	-ge-	.	.	.	.	.	.	.	.	.	.	.	.	.	.	.
.	.	.	.	.	.	.	.	.	.	.	.	.	.	.	.	.	.	.	.	.	.	.	.	.	.	.	.	16A\JJ)	.	.	.	.	.	16f#X/JJ)	.	.	.	.	.	.	.	.	.	.	.	.	.	.	.	.
!!LO:PB:g=original
=26	=26	=26	=26	=26	=26	=26	=26	=26	=26	=26	=26	=26	=26	=26	=26	=26	=26	=26	=26	=26	=26	=26	=26	=26	=26	=26	=26	=26	=26	=26	=26	=26	=26	=26	=26	=26	=26	=26	=26	=26	=26	=26	=26	=26	=26	=26	=26	=26	=26	=26
2.ryy	2.ryy	2.ryy	2.ryy	2.ryy	4r	4r	.	2.ryy	.	2.ryy	.	.	4r	.	.	4r	.	.	4r	.	.	4r	.	.	4G\	-re,	.	4B-\	.	.	4d/	.	.	4g/	-re	.	2.ryy	2.ryy	2.ryy	2.ryy	2.ryy	.	2.ryy	.	2.ryy	.	2.ryy	.	2.ryy	.
.	.	.	.	.	8r	8r	.	.	.	.	.	.	8r	.	.	8r	.	.	8r	.	.	8r	.	.	8r	.	.	8r	.	.	8r	.	.	8r	.	.	.	.	.	.	.	.	.	.	.	.	.	.	.	.
!	!	!	!	!	!	!	!	!	!	!	!	!	!	!	!	!	!	!	!	!	!	!	!	!LO:DY:rj	!	!	!LO:DY:rj	!	!	!	!	!	!	!	!	!LO:DY:rj	!	!	!	!	!	!	!	!	!	!	!	!	!	!
.	.	.	.	.	8F/L 8FF/	8a/L 8f/ 8c/	.	.	.	.	.	.	4F\	Fac	.	4c\	.	.	4f/	.	.	4a/	Fac	f	4Fn\	Fac	f	4c\	.	,	4fn/	.	.	4a/	Fac	f	.	.	.	.	.	.	.	.	.	.	.	.	.	.
.	.	.	.	.	8r	8r	.	.	.	.	.	.	.	.	.	.	.	.	.	.	.	.	.	.	.	.	.	.	.	.	.	.	.	.	.	.	.	.	.	.	.	.	.	.	.	.	.	.	.	.
.	.	.	.	.	8E-/J 8EE-/	8a/J 8f/ 8c/	.	.	.	.	.	.	8E-\	ut	.	8c\	.	.	8f/	.	.	8a/	ut	.	8E-\	ut	.	8c\	.	.	8f/	.	.	8a/	ut	.	.	.	.	.	.	.	.	.	.	.	.	.	.	.
=27	=27	=27	=27	=27	=27	=27	=27	=27	=27	=27	=27	=27	=27	=27	=27	=27	=27	=27	=27	=27	=27	=27	=27	=27	=27	=27	=27	=27	=27	=27	=27	=27	=27	=27	=27	=27	=27	=27	=27	=27	=27	=27	=27	=27	=27	=27	=27	=27	=27	=27
2.ryy	2.ryy	2.ryy	2.ryy	2.ryy	8D/ 8DD/	8b-/ 8f/ 8B-/	.	2.ryy	.	2.ryy	.	.	8D\	por-	.	8B-\	.	.	8f/	.	.	8b-/	por-	.	8D\	por-	.	8B-\	.	.	8f/	.	.	8b-/	por-	.	2.ryy	2.ryy	2.ryy	2.ryy	2.ryy	.	2.ryy	.	2.ryy	.	2.ryy	.	2.ryy	.
.	.	.	.	.	4D/ 4DD/	4f/ 4B-/	.	.	.	.	.	.	4D\	-tem	.	4B-\	.	.	4f/	.	.	4f/	-tem	.	4D\	-tem	.	4B-\	.	.	4f/	.	.	4f/	-tem	.	.	.	.	.	.	.	.	.	.	.	.	.	.	.
.	.	.	.	.	8D-X/L 8DD-X/	8g/L 8e-/ 8B-/	.	.	.	.	.	.	4D-X\	Chri-	.	4B-\	.	.	4e-/	.	.	4g/	Chri-	.	4D-X\	Chri-	.	4B-\	.	.	4e-/	.	.	4g/	Chri-	.	.	.	.	.	.	.	.	.	.	.	.	.	.	.
.	.	.	.	.	8r	8r	.	.	.	.	.	.	.	.	.	.	.	.	.	.	.	.	.	.	.	.	.	.	.	.	.	.	.	.	.	.	.	.	.	.	.	.	.	.	.	.	.	.	.	.
.	.	.	.	.	8D-/J 8DD-/	8g/J 8e-/ 8B-/	.	.	.	.	.	.	8D-\	-sti	.	8B-\	.	.	8e-/	.	.	8g/	-sti	.	8D-\	-sti	.	8B-\	.	.	8e-/	.	.	8g/	-sti	.	.	.	.	.	.	.	.	.	.	.	.	.	.	.
=28	=28	=28	=28	=28	=28	=28	=28	=28	=28	=28	=28	=28	=28	=28	=28	=28	=28	=28	=28	=28	=28	=28	=28	=28	=28	=28	=28	=28	=28	=28	=28	=28	=28	=28	=28	=28	=28	=28	=28	=28	=28	=28	=28	=28	=28	=28	=28	=28	=28	=28
2.ryy	2.ryy	2.ryy	2.ryy	2.ryy	8C/ 8CC/	8a-X/ 8e-/ 8A-X/	.	2.ryy	.	2.ryy	.	.	8C/	mor-	.	8A-X\	.	.	8e-/	.	.	8a-X/	mor-	.	8C/	mor-	.	8A-X\	.	.	8e-/	.	.	8a-X/	mor-	.	2.ryy	2.ryy	2.ryy	2.ryy	2.ryy	.	2.ryy	.	2.ryy	.	2.ryy	.	2.ryy	.
!	!	!	!	!	!	!	!	!	!	!	!	!	!	!	!	!	!	!	!	!	!	!	!	!	!	!	!	!	!	!	!	!	!	!	!	!LO:DY:a	!	!	!	!	!	!	!	!	!	!	!	!	!	!
.	.	.	.	.	4C/ 4CC/	4e-/ 4A-/	.	.	.	.	.	.	[4C/	-tem	.	[4A-\	.	.	[4e-/	.	.	[4e-/	-tem	.	[4C/	-tem	.	[4A-\	.	.	[4e-/	.	.	[4e-/	-tem	<	.	.	.	.	.	.	.	.	.	.	.	.	.	.
.	.	.	.	.	4r	4r	.	.	.	.	.	.	8C/]	.	.	8A-\]	.	.	8e-/]	.	.	8e-/]	.	.	8C/]	.	.	8A-\]	.	.	8e-/]	.	.	8e-/]	.	.	.	.	.	.	.	.	.	.	.	.	.	.	.	.
.	.	.	.	.	.	.	.	.	.	.	.	.	8C-X/	Pas-	.	8A-\	.	.	8e-/	.	.	8e-/	Pas-	.	8C-X/	Pas-	.	8A-\	.	.	8e-/	.	.	8e-/	Pas-	.	.	.	.	.	.	.	.	.	.	.	.	.	.	.
.	.	.	.	.	8r	8r	.	.	.	.	.	.	8C-/	-si-	.	8A-\	.	.	8e-/	.	.	8f/	-si-	.	8C-/	-si-	.	8A-\	.	.	8e-/	.	.	8f/	-si-	[[	.	.	.	.	.	.	.	.	.	.	.	.	.	.
=29	=29	=29	=29	=29	=29	=29	=29	=29	=29	=29	=29	=29	=29	=29	=29	=29	=29	=29	=29	=29	=29	=29	=29	=29	=29	=29	=29	=29	=29	=29	=29	=29	=29	=29	=29	=29	=29	=29	=29	=29	=29	=29	=29	=29	=29	=29	=29	=29	=29	=29
2.ryy	2.ryy	2.ryy	2.ryy	2.ryy	2.r	2.r	.	2.ryy	.	2.ryy	.	.	4BB-/	-o-	.	4B-\	.	.	4e-/	.	.	4g/	-o-	.	4BB-/	-o-	.	4B-\	.	.	4e-/	.	.	4g/	-o-	.	2.ryy	2.ryy	2.ryy	2.ryy	2.ryy	.	2.ryy	.	2.ryy	.	2.ryy	.	2.ryy	.
.	.	.	.	.	.	.	.	.	.	.	.	.	8BB-/	-nis	.	8e-\	.	.	8e-/	.	.	8g/	-nis	.	8BB-/	-nis	.	8e-\	.	.	8e-/	.	.	8g/	-nis	.	.	.	.	.	.	.	.	.	.	.	.	.	.	.
.	.	.	.	.	.	.	.	.	.	.	.	.	(8C\L	fac	.	4e-\	.	.	4e-/	.	.	4a-X/	fac	.	(8C\L	fac	.	4e-\	.	.	4e-/	.	.	4a-X/	fac	.	.	.	.	.	.	.	.	.	.	.	.	.	.	.
.	.	.	.	.	.	.	.	.	.	.	.	.	8c\J)	.	.	.	.	.	.	.	.	.	.	.	8c\J)	.	.	.	.	.	.	.	.	.	.	.	.	.	.	.	.	.	.	.	.	.	.	.	.	.
.	.	.	.	.	.	.	.	.	.	.	.	.	8B-\	con-	.	8e-\	.	.	8e-/	.	.	8g/	con-	.	8B-\	con-	.	8e-\	.	.	8e-/	.	.	8g/	con-	.	.	.	.	.	.	.	.	.	.	.	.	.	.	.
=30	=30	=30	=30	=30	=30	=30	=30	=30	=30	=30	=30	=30	=30	=30	=30	=30	=30	=30	=30	=30	=30	=30	=30	=30	=30	=30	=30	=30	=30	=30	=30	=30	=30	=30	=30	=30	=30	=30	=30	=30	=30	=30	=30	=30	=30	=30	=30	=30	=30	=30
!	!	!	!	!	!	!	!LO:DY:rj	!	!	!	!	!	!	!	!	!	!	!	!	!	!	!	!	!LO:DY:rj	!	!	!	!	!	!	!	!	!	!	!	!LO:DY:rj	!	!	!	!	!	!	!	!	!	!	!	!	!	!
2.ryy	2.ryy	2.ryy	2.ryy	2.ryy	8c\L 8A-X\	8cc/L 8a-X/ 8e-/	f	2.ryy	.	2.ryy	.	.	8A-X\	-sor-	.	8e-\	.	.	8e-/	.	.	8cc\	-sor-	f	8A-X\	-sor-	.	8e-\	.	.	8e-/	.	.	8cc\	-sor-	f	2.ryy	2.ryy	2.ryy	2.ryy	2.ryy	.	2.ryy	.	2.ryy	.	2.ryy	.	2.ryy	.
.	.	.	.	.	8B-\J 8G\	8b-/J 8e-/	.	.	.	.	.	.	8G\	-tem	.	8e-\	.	.	8e-/	.	.	8b-\	-tem	.	8G\	-tem	.	8e-\	.	.	8e-/	.	.	8b-\	-tem	.	.	.	.	.	.	.	.	.	.	.	.	.	.	.
.	.	.	.	.	8r;	8r;	.	.	.	.	.	.	8r;	.	.	8r;	.	.	8r;	.	.	8r;	.	.	8r	.	.	8r;	.	.	8r;	.	.	8r;	.	.	.	.	.	.	.	.	.	.	.	.	.	.	.	.
!	!	!	!	!	!	!	!	!	!	!	!	!	!	!	!	!	!	!	!	!	!	!	!	!	!	!	!LO:DY:rj	!	!	!	!	!	!	!	!	!LO:DY:rj	!	!	!	!	!	!	!	!	!	!	!	!	!	!
.	.	.	.	.	4r	4r	.	.	.	.	.	.	4r	.	.	4r	.	.	4r	.	.	4r	.	.	4F\	Fac	p	4e-\	.	.	4f/	.	.	4an/	Fac	p	.	.	.	.	.	.	.	.	.	.	.	.	.	.
.	.	.	.	.	8r	8r	.	.	.	.	.	.	8r	.	.	8r	.	.	8r	.	.	8r	.	.	8r	.	.	8r	.	.	8r	.	.	8r	.	.	.	.	.	.	.	.	.	.	.	.	.	.	.	.
!!LO:PB:g=original
=31	=31	=31	=31	=31	=31	=31	=31	=31	=31	=31	=31	=31	=31	=31	=31	=31	=31	=31	=31	=31	=31	=31	=31	=31	=31	=31	=31	=31	=31	=31	=31	=31	=31	=31	=31	=31	=31	=31	=31	=31	=31	=31	=31	=31	=31	=31	=31	=31	=31	=31
2.ryy	2.ryy	2.ryy	2.ryy	2.ryy	2.r	2.r	.	2.ryy	.	2.ryy	.	.	2.r	.	.	2.r	.	.	2.r	.	.	2.r	.	.	4BB-/	fac	.	4d\	.	.	4f/	.	.	4a-X/	fac	.	2.ryy	2.ryy	2.ryy	2.ryy	2.ryy	.	2.ryy	.	2.ryy	.	2.ryy	.	2.ryy	.
.	.	.	.	.	.	.	.	.	.	.	.	.	.	.	.	.	.	.	.	.	.	.	.	.	8r	.	.	8r	.	.	8r	.	.	8r	.	.	.	.	.	.	.	.	.	.	.	.	.	.	.	.
.	.	.	.	.	.	.	.	.	.	.	.	.	.	.	.	.	.	.	.	.	.	.	.	.	(4.C-X/	fac	.	4.c-X\	.	.	[4.e-/	.	.	[4.g-X/	fac	.	.	.	.	.	.	.	.	.	.	.	.	.	.	.
=32	=32	=32	=32	=32	=32	=32	=32	=32	=32	=32	=32	=32	=32	=32	=32	=32	=32	=32	=32	=32	=32	=32	=32	=32	=32	=32	=32	=32	=32	=32	=32	=32	=32	=32	=32	=32	=32	=32	=32	=32	=32	=32	=32	=32	=32	=32	=32	=32	=32	=32
!	!	!	!	!	!	!	!	!	!	!	!	!	!	!	!	!	!	!	!	!	!	!	!	!	!	!	!	!	!	!	!	!	!	!	!	!LO:DY:a	!	!	!	!	!	!	!	!	!	!	!	!	!	!
2.ryy	2.ryy	2.ryy	2.ryy	2.ryy	4r	4r	.	2.ryy	.	2.ryy	.	.	4r	.	.	4r	.	.	4r	.	.	4r	.	.	4.BB-/)	.	.	4.e-\	.	.	4.e-/]	.	.	4.g-/]	.	<	2.ryy	2.ryy	2.ryy	2.ryy	2.ryy	.	2.ryy	.	2.ryy	.	2.ryy	.	2.ryy	.
.	.	.	.	.	8r	8r	.	.	.	.	.	.	8r	.	.	8r	.	.	8r	.	.	8r	.	.	.	.	.	.	.	.	.	.	.	.	.	.	.	.	.	.	.	.	.	.	.	.	.	.	.	.
.	.	.	.	.	8r	8r	.	.	.	.	.	.	8r	.	.	8r	.	.	8r	.	.	8r	.	<	4.AA-X/	con-	.	4.c-X\	.	.	4.e-/	.	.	4.f/	con-	.	.	.	.	.	.	.	.	.	.	.	.	.	.	.
.	.	.	.	.	8F\L 8E-\ 8C-X\ 8AA-X\	8f/L 8e-/ 8c-X/	.	.	.	.	.	.	8AA-X/	fac	.	8c-X\	.	.	8e-/	.	.	8f/	fac	.	.	.	.	.	.	.	.	.	.	.	.	.	.	.	.	.	.	.	.	.	.	.	.	.	.	.
.	.	.	.	.	8F\J 8E-\ 8C-\ 8AA-\	8f/J 8e-/ 8c-/	.	.	.	.	.	.	8AA-/	con-	.	8c-\	.	.	8e-/	.	.	8f/	con-	[[	.	.	.	.	.	.	.	.	.	.	.	[[	.	.	.	.	.	.	.	.	.	.	.	.	.	.
=33	=33	=33	=33	=33	=33	=33	=33	=33	=33	=33	=33	=33	=33	=33	=33	=33	=33	=33	=33	=33	=33	=33	=33	=33	=33	=33	=33	=33	=33	=33	=33	=33	=33	=33	=33	=33	=33	=33	=33	=33	=33	=33	=33	=33	=33	=33	=33	=33	=33	=33
!	!	!	!	!	!	!	!	!	!	!	!	!	!	!	!LO:DY:rj	!	!	!	!	!	!	!	!	!LO:DY:rj	!	!	!LO:DY:rj	!	!	!LO:DY:rj	!	!	!	!	!	!LO:DY:rj	!	!	!	!	!	!	!	!	!	!	!	!	!	!
2.ryy	2.ryy	2.ryy	2.ryy	2.ryy	8.G\L 8.E-\ 8.BB-\	8.g/L 8.e-/ 8.B-/	.	2.ryy	.	2.ryy	.	.	2.BB-/	-sor-	f	([4.B-\	.	.	(>[4.e-/	.	.	(>4.gn/	-sor-	f	2.BB-/	-sor-	f	([4.B-\	.	f	(>[4.e-/	.	.	(>4.gn/	-sor-	f	2.ryy	2.ryy	2.ryy	2.ryy	2.ryy	.	2.ryy	.	2.ryy	.	2.ryy	.	2.ryy	.
.	.	.	.	.	16B-\L 16G\ 16E-\	16b-/L 16g/ 16e-/	.	.	.	.	.	.	.	.	.	.	.	.	.	.	.	.	.	.	.	.	.	.	.	.	.	.	.	.	.	.	.	.	.	.	.	.	.	.	.	.	.	.	.	.
.	.	.	.	.	16e-\ 16B-\ 16G\	16ee-/ 16b-/ 16g/	.	.	.	.	.	.	.	.	.	.	.	.	.	.	.	.	.	.	.	.	.	.	.	.	.	.	.	.	.	.	.	.	.	.	.	.	.	.	.	.	.	.	.	.
.	.	.	.	.	16g\JJ 16e-\ 16B-\	16gg/JJ 16ee-/ 16b-/	.	.	.	.	.	.	.	.	.	.	.	.	.	.	.	.	.	.	.	.	.	.	.	.	.	.	.	.	.	.	.	.	.	.	.	.	.	.	.	.	.	.	.	.
.	.	.	.	.	4B-\ 4BB-\	4ff\ 4ee-\ 4cc\	.	.	.	.	.	.	.	.	.	4B-\]	.	.	4e-/]	.	.	4f/	.	.	.	.	.	4B-\]	.	.	4e-/]	.	.	4f/	.	.	.	.	.	.	.	.	.	.	.	.	.	.	.	.
.	.	.	.	.	8B-\ 8BB-\	8bb-\ 8ff\ 8dd\ 8cc\	.	.	.	.	.	.	.	.	.	8A-X\)	.	.	8d/	.	.	8b-/)	.	.	.	.	.	8A-X\)	.	.	8d/)	.	.	8b-/)	.	.	.	.	.	.	.	.	.	.	.	.	.	.	.	.
=34	=34	=34	=34	=34	=34	=34	=34	=34	=34	=34	=34	=34	=34	=34	=34	=34	=34	=34	=34	=34	=34	=34	=34	=34	=34	=34	=34	=34	=34	=34	=34	=34	=34	=34	=34	=34	=34	=34	=34	=34	=34	=34	=34	=34	=34	=34	=34	=34	=34	=34
2.ryy	2.ryy	2.ryy	2.ryy	2.ryy	4c\ 4C\	4ee-/ 4g/ 4e-/	.	2.ryy	.	2.ryy	.	.	4C/	-tem	.	4G/	.	.	4e-/)	.	.	4g/	-tem	.	4C/	-tem	.	4G/	.	.	4e-/	.	.	4g/	-tem	.	2.ryy	2.ryy	2.ryy	2.ryy	2.ryy	.	2.ryy	.	2.ryy	.	2.ryy	.	2.ryy	.
.	.	.	.	.	8r	8r	.	.	.	.	.	.	8r	.	.	8r	.	.	8r	.	.	8r	.	.	8r	.	.	8r	.	.	8r	.	.	8r	.	.	.	.	.	.	.	.	.	.	.	.	.	.	.	.
.	.	.	.	.	8AA-X\L	8f/L 8e-/ 8c-X/	.	.	.	.	.	.	4AA-X/	fac	.	4c-X\	.	.	4e-/	.	.	4f/	fac	.	4AA-X/	Fac	.	4c-X\	.	.	4e-/	.	.	4f/	Fac	.	.	.	.	.	.	.	.	.	.	.	.	.	.	.
.	.	.	.	.	8F\ 8E-\ 8C-X\	8r	.	.	.	.	.	.	.	.	.	.	.	.	.	.	.	.	.	.	.	.	.	.	.	.	.	.	.	.	.	.	.	.	.	.	.	.	.	.	.	.	.	.	.	.
!	!	!	!	!	!	!	!	!	!	!	!	!	!	!	!	!	!	!	!	!	!	!	!	!	!	!LO:SIC:v:l:s=con-	!	!	!	!	!	!	!	!LO:SIC:v:l:s=con-	!	!	!	!	!	!	!	!	!	!	!	!	!	!	!	!
.	.	.	.	.	8F\J 8E-\ 8C-\	8f/J 8e-/ 8c-/	.	.	.	.	.	.	8AA-/	con-	.	8e-\	.	.	8f/	.	.	8cc-X\	con-	.	8AA-/	on-	.	8e-\	.	.	8f/	.	.	8cc-X\	on-	.	.	.	.	.	.	.	.	.	.	.	.	.	.	.
=35	=35	=35	=35	=35	=35	=35	=35	=35	=35	=35	=35	=35	=35	=35	=35	=35	=35	=35	=35	=35	=35	=35	=35	=35	=35	=35	=35	=35	=35	=35	=35	=35	=35	=35	=35	=35	=35	=35	=35	=35	=35	=35	=35	=35	=35	=35	=35	=35	=35	=35
2.ryy	2.ryy	2.ryy	2.ryy	2.ryy	4G\ 4E-\ 4BB-\	4g/ 4e-/ 4B-/	.	2.ryy	.	2.ryy	.	.	(8.BB-\L	-sor-	.	(4.e-\	.	.	(8g/L	.	.	(8b-\L	-sor-	.	(8.BB-\L	-sor-	.	(4.e-\	.	.	(8g/L	.	.	(8b-\L	-sor-	.	2.ryy	2.ryy	2.ryy	2.ryy	2.ryy	.	2.ryy	.	2.ryy	.	2.ryy	.	2.ryy	.
.	.	.	.	.	.	.	.	.	.	.	.	.	.	.	.	.	.	.	16e-/L	.	.	16g\L	.	.	.	.	.	.	.	.	16e-/L	.	.	16g\L	.	.	.	.	.	.	.	.	.	.	.	.	.	.	.	.
.	.	.	.	.	.	.	.	.	.	.	.	.	16B-\L	.	.	.	.	.	16g/J	.	.	16b-\	.	.	16B-\L	.	.	.	.	.	16g/J	.	.	16b-\	.	.	.	.	.	.	.	.	.	.	.	.	.	.	.	.
.	.	.	.	.	8r	8r	.	.	.	.	.	.	16G\	.	.	.	.	.	8b-/J	.	.	16ee-\	.	.	16G\	.	.	.	.	.	8b-/J	.	.	16ee-\	.	.	.	.	.	.	.	.	.	.	.	.	.	.	.	.
.	.	.	.	.	.	.	.	.	.	.	.	.	16E-\JJ	.	.	.	.	.	.	.	.	16gg\JJ	.	.	16E-\JJ)	.	.	.	.	.	.	.	.	16gg\JJ	.	.	.	.	.	.	.	.	.	.	.	.	.	.	.	.
.	.	.	.	.	4B-\ 4F\ 4D\ 4BB-\	4dd/ 4b-/ 4a-X/ 4f/	.	.	.	.	.	.	4.BB-/)	.	.	4d\	.	.	4b-/	.	.	4bb-\	.	.	4.BB-/	.	.	4d\	.	.	4b-/	.	.	4bb-\	.	.	.	.	.	.	.	.	.	.	.	.	.	.	.	.
.	.	.	.	.	8r	8r	.	.	.	.	.	.	.	.	.	8f\)	.	.	8a-X/)	.	.	8dd\)	.	.	.	.	.	8f\)	.	.	8a-X/)	.	.	8dd\)	.	.	.	.	.	.	.	.	.	.	.	.	.	.	.	.
!!LO:PB:g=original
=36	=36	=36	=36	=36	=36	=36	=36	=36	=36	=36	=36	=36	=36	=36	=36	=36	=36	=36	=36	=36	=36	=36	=36	=36	=36	=36	=36	=36	=36	=36	=36	=36	=36	=36	=36	=36	=36	=36	=36	=36	=36	=36	=36	=36	=36	=36	=36	=36	=36	=36
2.ryy	2.ryy	2.ryy	2.ryy	2.ryy	4B-\ 4G\ 4E-\	4ee-/ 4b-/ 4g/ 4e-/	.	2.r	.	2.r	.	.	4E-\	-tem	.	4e-\	tem	.	4g/	.	.	4ee-\	-tem	.	4E-\	-tem	.	4e-\	tem	.	4g/	.	.	4ee-\	-tem	.	2.ryy	2.ryy	2.ryy	2.ryy	2.ryy	.	2.ryy	.	2.ryy	.	2.ryy	.	2.ryy	.
.	.	.	.	.	8r	8r	.	.	.	.	.	.	8r	.	.	8r	.	.	8r	.	.	8r	.	.	8r	.	.	8r	.	.	8r	.	.	8r	.	.	.	.	.	.	.	.	.	.	.	.	.	.	.	.
.	.	.	.	.	4r	4r	.	.	.	.	.	.	4.G\	et	.	(8B-\L	et	.	4r	.	.	4r	.	.	4.G\	et	.	(8B-\L	et	.	4r	.	.	4r	.	.	.	.	.	.	.	.	.	.	.	.	.	.	.	.
.	.	.	.	.	.	.	.	.	.	.	.	.	.	.	.	8e-\	.	.	.	.	.	.	.	.	.	.	.	8e-\	.	.	.	.	.	.	.	.	.	.	.	.	.	.	.	.	.	.	.	.	.	.
.	.	.	.	.	8r	8r	.	.	.	.	.	.	.	.	.	8d\J)	.	.	8r	.	.	8r	.	.	.	.	.	8d\J)	.	.	8r	.	.	8r	.	.	.	.	.	.	.	.	.	.	.	.	.	.	.	.
=37	=37	=37	=37	=37	=37	=37	=37	=37	=37	=37	=37	=37	=37	=37	=37	=37	=37	=37	=37	=37	=37	=37	=37	=37	=37	=37	=37	=37	=37	=37	=37	=37	=37	=37	=37	=37	=37	=37	=37	=37	=37	=37	=37	=37	=37	=37	=37	=37	=37	=37
2.ryy	2.ryy	2.ryy	2.ryy	2.ryy	2.r	2.r	.	2.r	.	2.r	.	.	4A-X\	pla-	.	4c\	.	.	2.r	.	.	2.r	.	.	4A-X\	pla-	.	4c\	pla-	.	2.r	.	.	2.r	.	.	2.ryy	2.ryy	2.ryy	2.ryy	2.ryy	.	2.ryy	.	2.ryy	.	2.ryy	.	2.ryy	.
!	!	!	!	!	!	!	!	!	!	!	!	!	!	!LO:SIC:v:l:s=-gas-	!	!	!	!	!	!	!	!	!	!	!LO:SIC:v:l:s=-gas-	!	!	!LO:SIC:v:l:s=-gas-	!	!	!	!	!	!	!	!	!	!	!	!	!	!	!	!	!	!	!	!	!	!
.	.	.	.	.	.	.	.	.	.	.	.	.	8A-\	-gis	.	8c\	.	.	.	.	.	.	.	.	8A-\	-gis	.	8c\	-gis	.	.	.	.	.	.	.	.	.	.	.	.	.	.	.	.	.	.	.	.	.
.	.	.	.	.	.	.	.	.	.	.	.	.	4An\	re-	.	(8c\L	.	.	.	.	.	.	.	.	4An\	re-	.	(8c\L	re-	.	.	.	.	.	.	.	.	.	.	.	.	.	.	.	.	.	.	.	.	.
.	.	.	.	.	.	.	.	.	.	.	.	.	.	.	.	8f\J)	.	.	.	.	.	.	.	.	.	.	.	8f\J	.	.	.	.	.	.	.	.	.	.	.	.	.	.	.	.	.	.	.	.	.	.
.	.	.	.	.	.	.	.	.	.	.	.	.	8A\	-co-	.	8e-\	.	.	.	.	.	.	.	.	8A\	-co-	.	8e-\)	-co-	.	.	.	.	.	.	.	.	.	.	.	.	.	.	.	.	.	.	.	.	.
=38	=38	=38	=38	=38	=38	=38	=38	=38	=38	=38	=38	=38	=38	=38	=38	=38	=38	=38	=38	=38	=38	=38	=38	=38	=38	=38	=38	=38	=38	=38	=38	=38	=38	=38	=38	=38	=38	=38	=38	=38	=38	=38	=38	=38	=38	=38	=38	=38	=38	=38
2.ryy	2.ryy	2.ryy	2.ryy	2.ryy	2.r	2.r	.	2.r	.	2.r	.	.	4B-\	-le-	.	4d\	.	.	4r	.	.	2.r	.	.	4B-\	-le-	.	4d\	-le-	.	4r	.	.	2.r	.	.	2.ryy	2.ryy	2.ryy	2.ryy	2.ryy	.	2.ryy	.	2.ryy	.	2.ryy	.	2.ryy	.
.	.	.	.	.	.	.	.	.	.	.	.	.	8B-\	-re	.	8d\	.	.	8r	.	.	.	.	.	8B-\	-re	.	8d\	-re	.	8r	.	.	.	.	.	.	.	.	.	.	.	.	.	.	.	.	.	.	.
.	.	.	.	.	.	.	.	.	.	.	.	.	4.Bn\	et	.	4.d\	.	.	(8d/L	et	.	.	.	.	4.Bn\	et	.	4.d\	et	.	8d/L	et	.	.	.	.	.	.	.	.	.	.	.	.	.	.	.	.	.	.
.	.	.	.	.	.	.	.	.	.	.	.	.	.	.	.	.	.	.	8g/	.	.	.	.	.	.	.	.	.	.	.	8g/	.	.	.	.	.	.	.	.	.	.	.	.	.	.	.	.	.	.	.
.	.	.	.	.	.	.	.	.	.	.	.	.	.	.	.	.	.	.	8f/J)	.	.	.	.	.	.	.	.	.	.	.	8f/J	.	.	.	.	.	.	.	.	.	.	.	.	.	.	.	.	.	.	.
=39	=39	=39	=39	=39	=39	=39	=39	=39	=39	=39	=39	=39	=39	=39	=39	=39	=39	=39	=39	=39	=39	=39	=39	=39	=39	=39	=39	=39	=39	=39	=39	=39	=39	=39	=39	=39	=39	=39	=39	=39	=39	=39	=39	=39	=39	=39	=39	=39	=39	=39
2.ryy	2.ryy	2.ryy	2.ryy	2.ryy	2.r	2.r	.	2.r	.	2.r	.	.	4c\	pla-	.	4c\	.	.	4e-/	pla-	.	4r	.	.	4c\	pla-	.	4c\	pla-	.	4e-/	pla-	.	4r	.	.	2.ryy	2.ryy	2.ryy	2.ryy	2.r	.	2.r	.	2.r	.	2.r	.	2.r	.
!	!	!	!	!	!	!	!	!	!	!	!	!	!LO:SIC:v:l:s=-gas-	!	!	!	!	!	!LO:SIC:v:l:s=-gas-	!	!	!	!	!	!	!LO:SIC:v:l:s=-gas-	!	!LO:SIC:v:l:s=-gas-	!	!	!LO:SIC:v:l:s=-gas-	!	!	!	!	!	!	!	!	!	!	!	!	!	!	!	!	!	!	!
.	.	.	.	.	.	.	.	.	.	.	.	.	8C/	-gis	.	8c\	.	.	8e-/	-gis	.	8r	.	.	8C/	-gis	.	8c\	-gis	.	8e-/	-gis	.	8r	.	.	.	.	.	.	.	.	.	.	.	.	.	.	.	.
.	.	.	.	.	.	.	.	.	.	.	.	.	4D\	re-	.	4B-\	.	.	4f/	re-	.	8f/L	re-	.	4D\	re-	.	4B-\	re-	.	4f/	re-	.	8f/L	re-	.	.	.	.	.	.	.	.	.	.	.	.	.	.	.
.	.	.	.	.	.	.	.	.	.	.	.	.	.	.	.	.	.	.	.	.	.	8b-/J	.	.	.	.	.	.	.	.	.	.	.	8b-/J	.	.	.	.	.	.	.	.	.	.	.	.	.	.	.	.
.	.	.	.	.	.	.	.	.	.	.	.	.	8D\	-co-	.	8B-\	.	.	8f/	-co-	.	8a-X/	-co-	.	8D\	-co-	.	8B-\	-co-	.	8f/	-co-	.	8a-X/	-co-	.	.	.	.	.	.	.	.	.	.	.	.	.	.	.
=40	=40	=40	=40	=40	=40	=40	=40	=40	=40	=40	=40	=40	=40	=40	=40	=40	=40	=40	=40	=40	=40	=40	=40	=40	=40	=40	=40	=40	=40	=40	=40	=40	=40	=40	=40	=40	=40	=40	=40	=40	=40	=40	=40	=40	=40	=40	=40	=40	=40	=40
*	*	*	*	*	*	*	*	*	*	*	*	*	*	*	*	*	*	*	*	*	*	*	*	*	*	*	*	*	*	*	*	*	*	*	*	*	*	*	*	*	*	*	*	*	*^	*	*	*	*	*
2.ryy	2.ryy	2.ryy	2.ryy	2.ryy	4r	4r	.	4r	.	4r	.	.	(4E-\	-le-	.	(4B-\	.	.	4.e-/	-le-	.	(4g/	-le-	.	(4E-\	-le-	.	(4c\	-le-	.	4.e-/	-le-	.	4g/	-le-	.	2.ryy	2.ryy	2.ryy	2.ryy	4r	.	4r	.	4r	2ryy	.	4r	.	4r	.
.	.	.	.	.	8r	8r	.	8r	.	8r	.	.	8C/)	.	.	8e-\)	.	.	.	.	.	8an/)	.	.	8C/)	-re	.	8e-\)	.	.	.	.	.	8an/	.	.	.	.	.	.	8r	.	8r	.	8r	.	.	8r	.	8r	.
.	.	.	.	.	4r	4r	.	4r	.	4r	.	.	8D\L	-re	.	4d\	.	.	4d/	-re,	.	4f#X/	-re	.	8D\L	,	.	4d\	-re	.	4d/	-re	.	4f#X/	-re,	.	.	.	.	.	4r	.	4r	.	4r	.	.	4r	.	4r	.
.	.	.	.	.	.	.	.	.	.	.	.	.	8d\J	.	.	.	.	.	.	.	.	.	.	.	8d\J	.	.	.	.	.	.	.	.	.	.	.	.	.	.	.	.	.	.	.	.	8ryy	.	.	.	.	.
!	!	!	!	!	!	!	!	!LO:TX:t=P:problem=brak początku łuku	!	!	!	!	!	!	!	!	!	!	!	!	!	!	!	!	!	!	!	!	!	!	!	!	!	!	!	!	!	!	!	!	!	!	!	!	!	!	!	!	!	!	!
!	!	!	!	!	!	!	!	!LO:TX:t=P:problem=brak początku ligatury	!	!LO:TX:t=P:problem=brak początku łuków	!LO:TX:t=P:problem=brak początku łuku	!	!	!LO:TX:t=P:problem=brak początku ligatury	!	!	!LO:TX:t=P:problem=brak początku łuku	!LO:DY:rj	!	!	!	!	!	!LO:DY:rj	!	!	!	!	!	!LO:DY:rj	!	!	!	!	!	!	!	!	!	!	!	!LO:DY:rj	!LO:TX:t=P:problem=brak początku ligatury	!LO:DY:rj	!LO:TX:t=P:problem=brak początku łuku	!LO:TX:t=P:problem=brak początku łuku	!	!	!	!	!LO:DY:rj
.	.	.	.	.	8c\ 8C\	8dd/ 8f#X/ 8d/	.	[8d\ (<8c\	Fac	([8dd/ 8f#X/	.	.	(8c\	Fac	.	[8d\	.	f	(>8f#X/	Fac	.	[8dd\	Fac	f	(8c\	Fac	.	[8d\	.	f	(8f#X/	.	.	[8dd\	Fac	.	.	.	.	.	8c\ 8C\	f	[8d/ 8D/	f	(8dd/	(>8f#\	.	(8ff#X\	.	[8ddd\	f
!!LO:PB:g=original
=41	=41	=41	=41	=41	=41	=41	=41	=41	=41	=41	=41	=41	=41	=41	=41	=41	=41	=41	=41	=41	=41	=41	=41	=41	=41	=41	=41	=41	=41	=41	=41	=41	=41	=41	=41	=41	=41	=41	=41	=41	=41	=41	=41	=41	=41	=41	=41	=41	=41	=41	=41
*	*	*	*	*	*	*	*	*	*	*^	*	*	*	*	*	*	*	*	*	*	*	*	*	*	*	*	*	*	*	*	*	*	*	*	*	*	*	*	*	*	*	*	*	*	*	*	*	*	*	*	*
2.ryy	2.ryy	2.ryy	2.ryy	2.ryy	8B-\ 8BB-\L	8dd/L 8g/ 8d/	.	4d\] 4B-\)	.	4dd/] 4g/)	4.ryy	.	.	4B-\)	.	.	4d\]	.	.	4g/)	.	.	4dd\]	.	.	4B-\)	.	.	4d\]	.	.	4g/)	.	.	4dd\]	.	.	2.ryy	2.ryy	2.ryy	2.ryy	4B-\ 4BB-\	.	4d/] 4D/	.	4dd/)	4g\)	.	4gg\)	.	4ddd\]	.
.	.	.	.	.	8r	8r	.	.	.	.	.	.	.	.	.	.	.	.	.	.	.	.	.	.	.	.	.	.	.	.	.	.	.	.	.	.	.	.	.	.	.	.	.	.	.	.	.	.	.	.	.	.
.	.	.	.	.	8A\ 8AA\J	8cc/J 8f#X/ 8d/	.	8d\ 8A\	me	8cc/ 8f#X/	.	.	.	8A\	me	.	8d\	.	.	8f#X/	.	.	8cc\	me	.	8A\	me	.	8d\	.	.	8f#X/	.	.	8cc\	me	.	.	.	.	.	8A\ 8AA\	.	8d/ 8D/	.	8cc#/	8f#\	.	8ff#X\	.	8ccc\	.
.	.	.	.	.	8G/ 8GG/	8r	.	4d\ 4G\	pla-	8cc/L	4g\	.	.	4G\	pla-	.	4d\	.	.	4g/	.	.	8cc\L	pla-	.	4G\	pla-	.	4d\	.	.	4g/	.	.	8cc\L	pla-	.	.	.	.	.	4G/ 4GG/	.	4d/ 4D/	.	8cc#/L	4g\	.	4gg\	.	(8ccc\L	.
.	.	.	.	.	8r	8b-/L 8g/ 8d/	.	.	.	8b-/J	.	.	.	.	.	.	.	.	.	.	.	.	8b-\J	.	.	.	.	.	.	.	.	.	.	.	8b-\J	.	.	.	.	.	.	.	.	.	.	8b-/	.	.	.	.	8bb-\)	.
!	!	!	!	!	!	!	!	!LO:SIC:v:l:s=-gas-	!	!	!	!	!	!LO:SIC:v:l:s=-gas-	!	!	!	!	!	!	!	!	!LO:SIC:v:l:s=-gas-	!	!	!LO:SIC:v:l:s=-gas-	!	!	!	!	!	!	!	!	!LO:SIC:v:l:s=-gas-	!	!	!	!	!	!	!	!	!	!	!	!	!	!	!	!	!
.	.	.	.	.	8D/ 8DD/	8a/J 8f#/ 8d/	.	8d\ 8D\	-gis	8a/	8f#\	.	.	8D\	-gis	.	8d\	.	.	8f#/	.	.	8a/	-gis	.	8D\	-gis	.	8d\	.	.	8f#/	.	.	8a\	-gis	.	.	.	.	.	8D/ 8DD/	.	8d/ 8D/	.	8a/J	8f#\	.	8ff#\	.	8aa'\J	.
*	*	*	*	*	*	*	*	*	*	*	*	*	*	*	*	*	*	*	*	*	*	*	*	*	*	*	*	*	*	*	*	*	*	*	*	*	*	*	*	*	*	*	*	*	*	*v	*v	*	*	*	*	*
=42	=42	=42	=42	=42	=42	=42	=42	=42	=42	=42	=42	=42	=42	=42	=42	=42	=42	=42	=42	=42	=42	=42	=42	=42	=42	=42	=42	=42	=42	=42	=42	=42	=42	=42	=42	=42	=42	=42	=42	=42	=42	=42	=42	=42	=42	=42	=42	=42	=42	=42	=42
*	*	*	*	*	*	*	*	*	*	*	*	*	*	*	*	*	*	*	*	*	*	*	*	*	*	*	*	*	*	*	*	*	*	*	*	*	*	*	*	*	*	*	*	*^	*	*	*	*	*	*	*
2.ryy	2.ryy	2.ryy	2.ryy	2.ryy	8E-/ 8EE-/L	8r	.	4B-\ 4E-\	val-	4g/	4g\	.	.	4E-\	val-	.	4B-\	.	.	4g/	.	.	4g/	val-	.	4E-\	val-	.	4B-\	.	.	4g/	.	.	4g/	val-	.	2.ryy	2.ryy	2.ryy	2.ryy	4E-/ 4EE-/	.	4e-X/	4e-\	.	4b-\ 4g\	.	4gg\	.	(4gg\	.
.	.	.	.	.	8r	8g/L 8e-/ 8B-/	.	.	.	.	.	.	.	.	.	.	.	.	.	.	.	.	.	.	.	.	.	.	.	.	.	.	.	.	.	.	.	.	.	.	.	.	.	.	.	.	.	.	.	.	.	.
!	!	!	!	!	!	!	!	!	!	!	!	!	!	!	!	!	!	!	!	!	!	!	!	!	!	!	!	!	!	!	!	!	!	!	!	!	!	!	!	!	!	!	!	!	!	!	!LO:TX:b:t=g:color=grey	!	!	!	!	!
.	.	.	.	.	8C/ 8CC/J	8a/J 8e-/ 8c/	.	8c\ 8C\	-ne-	8b-/ 8e-/	2ryy	.	.	8C/	-ne-	.	8c\	.	.	8e-/	.	.	8a/	-ne-	.	8C/	-ne-	.	8c\	.	.	8e-/	.	.	8a/	-ne-	.	.	.	.	.	8C/ 8CC/	.	8e-/	8cX\	.	8a\ 8e-\	.	8ee-\	.	8aa\)	.
.	.	.	.	.	4D/ 4DD/	4f#X/ 4d/ 4A/	.	4A\ 4D\	-ra-	4f#X/ 4d/	.	.	.	4D\	-ra-	.	4A\	.	.	4d/	.	.	4f#X/	-ra-	.	4D\	-ra-	.	4A\	.	.	4d/	.	.	4f#X/	-ra-	.	.	.	.	.	4D/ 4DD/	.	4d/	4d\	.	4a\ 4f#\	.	4dd\	.	4ff#X\	.
.	.	.	.	.	8r	8r	.	8A\ 8D\	-ri	8f#/ 8d/	.	.	.	8C/	-ri	.	8A\	.	.	8d/	.	.	8f#/	-ri	.	8C/	-ri	.	8A\	.	.	8d/	.	.	8f#/	-ri	.	.	.	.	.	8D/ 8DD/	.	8d/	8d\	.	8a\ 8f#\	.	8dd\	.	8ff#\	.
*	*	*	*	*	*	*	*	*	*	*v	*v	*	*	*	*	*	*	*	*	*	*	*	*	*	*	*	*	*	*	*	*	*	*	*	*	*	*	*	*	*	*	*	*	*	*	*	*	*	*	*	*	*
=43	=43	=43	=43	=43	=43	=43	=43	=43	=43	=43	=43	=43	=43	=43	=43	=43	=43	=43	=43	=43	=43	=43	=43	=43	=43	=43	=43	=43	=43	=43	=43	=43	=43	=43	=43	=43	=43	=43	=43	=43	=43	=43	=43	=43	=43	=43	=43	=43	=43	=43	=43
!	!	!	!	!	!	!	!	!	!	!	!	!	!	!	!LO:DY:rj	!	!	!LO:DY:rj	!	!	!LO:DY:rj	!	!	!LO:DY:rj	!	!	!LO:DY:rj	!	!	!LO:DY:b:rj	!	!	!LO:DY:rj	!	!	!LO:DY:rj	!	!	!	!	!	!	!	!	!	!	!	!	!	!	!
2.ryy	2.ryy	2.ryy	2.ryy	2.ryy	2.r	2.r	.	2.r	.	2.r	.	.	8BB-/	Cru-	p	8G/	.	p	8d/	.	p	8g/	Cru-	p	8BB-/	Cru-	p	8G/	.	p	8d/	.	p	8g/	Cru-	p	2.ryy	2.ryy	2.ryy	2.ryy	8G\ 8GG\	p	8d/	8d\	.	8b-\ 8g\	.	8dd\	.	8gg\	.
.	.	.	.	.	.	.	.	.	.	.	.	.	8BB-/	-ce	.	8d\	.	.	8d/	.	.	8g/	-ce	.	8BB-/	-ce	.	8d\	.	.	8d/	.	.	8g/	-ce	.	.	.	.	.	8r	.	8r	8ryy	.	8r	.	8r	.	8r	.
.	.	.	.	.	.	.	.	.	.	.	.	.	8F#X\	hac	.	8d\	.	.	8d/	.	.	8a/	hac	.	8F#X\	hac	.	8d\	.	.	8d/	.	.	8a/	hac	.	.	.	.	.	8r	.	8r	2ryy	.	8r	.	8r	.	8r	.
!	!	!	!	!	!	!	!	!	!	!	!	!	!LO:SIC:v:l:s=ine-	!	!	!	!	!	!	!	!	!LO:SIC:v:l:s=ine-	!	!	!LO:SIC:v:l:s=ine-	!	!	!	!	!	!	!	!	!LO:SIC:v:l:s=ine-	!	!	!	!	!	!	!	!	!	!	!	!	!	!	!	!	!
.	.	.	.	.	.	.	.	.	.	.	.	.	4G\	me	.	4d\	.	.	4g/	.	.	4b-\	me	.	4G\	me	.	4d\	.	.	4g/	.	.	4b-\	me	.	.	.	.	.	4r	.	4r	.	.	4r	.	4r	.	4r	.
.	.	.	.	.	.	.	.	.	.	.	.	.	8E-\	bri-	.	8c\	.	.	8g/	.	.	8cc\	bri-	.	8E-\	bri-	.	8c\	.	.	8g/	.	.	8cc\	bri-	.	.	.	.	.	8r	.	8r	.	.	8r	.	8r	.	8r	.
*	*	*	*	*	*	*	*	*	*	*	*	*	*	*	*	*	*	*	*	*	*	*	*	*	*	*	*	*	*	*	*	*	*	*	*	*	*	*	*	*	*	*	*v	*v	*	*	*	*	*	*	*
=44	=44	=44	=44	=44	=44	=44	=44	=44	=44	=44	=44	=44	=44	=44	=44	=44	=44	=44	=44	=44	=44	=44	=44	=44	=44	=44	=44	=44	=44	=44	=44	=44	=44	=44	=44	=44	=44	=44	=44	=44	=44	=44	=44	=44	=44	=44	=44	=44	=44	=44
2.ryy	2.ryy	2.ryy	2.ryy	2.ryy	2.r	2.r	.	2.r	.	2.r	.	.	4.D\	-a-	.	4.A\	.	.	4.f#X/	.	.	(4dd\	-a-	.	4.D\	-a-	.	4.A\	.	.	4.f#X/	.	.	(4dd\	-a-	.	2.ryy	2.ryy	2.ryy	2.ryy	2.r	.	2.r	.	2.r	.	2.r	.	2.r	.
.	.	.	.	.	.	.	.	.	.	.	.	.	.	.	.	.	.	.	.	.	.	16cc\LL	.	.	.	.	.	.	.	.	.	.	.	16cc\LL	.	.	.	.	.	.	.	.	.	.	.	.	.	.	.	.
.	.	.	.	.	.	.	.	.	.	.	.	.	.	.	.	.	.	.	.	.	.	16b-\JJ)	.	.	.	.	.	.	.	.	.	.	.	16b-\JJ)	.	.	.	.	.	.	.	.	.	.	.	.	.	.	.	.
.	.	.	.	.	.	.	.	.	.	.	.	.	4.D\	-ri	.	4.d\	.	.	4.f#/	.	.	4.a/	-ri	.	4.D\	-ri	.	4.d\	.	.	4.f#/	.	.	4.a/	-ri	.	.	.	.	.	.	.	.	.	.	.	.	.	.	.
!!LO:PB:g=original
=45	=45	=45	=45	=45	=45	=45	=45	=45	=45	=45	=45	=45	=45	=45	=45	=45	=45	=45	=45	=45	=45	=45	=45	=45	=45	=45	=45	=45	=45	=45	=45	=45	=45	=45	=45	=45	=45	=45	=45	=45	=45	=45	=45	=45	=45	=45	=45	=45	=45	=45
*	*	*	*	*	*^	*	*	*	*	*	*	*	*	*	*	*	*	*	*	*	*	*	*	*	*	*	*	*	*	*	*	*	*	*	*	*	*	*	*	*	*	*	*^	*	*^	*	*	*	*	*
!	!	!	!	!	!	!	!	!LO:DY:rj	!	!	!	!	!LO:DY:b:rj	!	!	!LO:DY:rj	!	!	!	!	!	!	!	!	!LO:DY:rj	!	!	!LO:DY:rj	!	!	!	!	!	!	!	!	!LO:DY:rj	!	!	!	!	!	!LO:DY:rj	!	!	!	!	!	!LO:DY:rj	!	!	!	!LO:DY:rj
2.ryy	2.ryy	2.ryy	2.ryy	2.ryy	4.C/	8C\L	8r	f	4.c\ 4.C\	Ob	4.ee-/ 4.g^/	ob	f	4.C^>/	Ob	f	4r	.	.	4.g/	.	.	4.ee-^\	Ob	f	4.C^>/	Ob	f	4r	.	.	4.g/	.	.	4.ee-^\	Ob	f	2.ryy	2.ryy	2.ryy	2.ryy	4.c\ 4.C\	f	4.g/	4.cX\	.	4.ee-X/	4.g\	f	4.gg^<\	.	4.eee-^<\	f
.	.	.	.	.	.	8c\	8ee-/L 8cc/ 8g/ 8e-/	.	.	.	.	.	.	.	.	.	.	.	.	.	.	.	.	.	.	.	.	.	.	.	.	.	.	.	.	.	.	.	.	.	.	.	.	.	.	.	.	.	.	.	.	.	.
.	.	.	.	.	.	8c\J	8ee-/J 8cc/ 8g/ 8e-/	.	.	.	.	.	.	.	.	.	8r	.	.	.	.	.	.	.	.	.	.	.	8r	.	.	.	.	.	.	.	.	.	.	.	.	.	.	.	.	.	.	.	.	.	.	.	.
.	.	.	.	.	4.BB-/	8BB-\L	8r	.	4.d\ 4.BB-\	a-	4.dd/ 4.g^/	a-	.	4.BB-^>/	a-	.	4r	.	.	4.g/	.	.	4.dd^\	a-	.	4.BB-^>/	a-	.	4r	.	.	4.g/	.	.	4.dd^\	a-	.	.	.	.	.	4.B-\ 4.BB-\	.	4.g/	4.c\	.	4.dd/	4.g\	.	4.gg^<\	.	4.ddd^<\	.
.	.	.	.	.	.	8B-\	8dd/L 8g/ 8d/	.	.	.	.	.	.	.	.	.	.	.	.	.	.	.	.	.	.	.	.	.	.	.	.	.	.	.	.	.	.	.	.	.	.	.	.	.	.	.	.	.	.	.	.	.	.
.	.	.	.	.	.	8B-\J	8dd/J 8g/ 8d/	.	.	.	.	.	.	.	.	.	8d\	a-	.	.	.	.	.	.	.	.	.	.	8d\	a-	.	.	.	.	.	.	.	.	.	.	.	.	.	.	.	.	.	.	.	.	.	.	.
=46	=46	=46	=46	=46	=46	=46	=46	=46	=46	=46	=46	=46	=46	=46	=46	=46	=46	=46	=46	=46	=46	=46	=46	=46	=46	=46	=46	=46	=46	=46	=46	=46	=46	=46	=46	=46	=46	=46	=46	=46	=46	=46	=46	=46	=46	=46	=46	=46	=46	=46	=46	=46	=46
*	*	*	*	*	*	*	*	*	*^	*	*^	*	*	*	*	*	*	*	*	*	*	*	*	*	*	*	*	*	*	*	*	*	*	*	*	*	*	*	*	*	*	*	*	*	*	*	*	*	*	*	*	*	*
2.ryy	2.ryy	2.ryy	2.ryy	2.ryy	4.AA/	8AA\L	8r	.	4.d/	(>4AA^\	-mo-	(4dd/	4.f#X\	-mo-	.	(4AA^>/	-mo-	.	4.d\	-mo-	.	4.f#X/	.	.	(4dd\	-mo-	.	(4AA^>/	-mo-	.	4.d\	-mo-	.	4.f#X/	.	.	(4dd^\	-mo-	.	2.ryy	2.ryy	2.ryy	2.ryy	4.A/ 4.AA/	.	4.f#/	4.d\	.	4dd/	4.f#\	.	4.ff#X^<\	.	(4ddd^<\	.
.	.	.	.	.	.	8A\	8dd/L 8f#X/ 8d/	.	.	.	.	.	.	.	.	.	.	.	.	.	.	.	.	.	.	.	.	.	.	.	.	.	.	.	.	.	.	.	.	.	.	.	.	.	.	.	.	.	.	.	.	.	.	.	.
.	.	.	.	.	.	8A\J	8cc/J 8f#/ 8d/	.	.	8A\)	.	8cc/)	.	.	.	8A\)	.	.	.	.	.	.	.	.	8cc\)	.	.	8A\)	.	.	.	.	.	.	.	.	8cc\)	.	.	.	.	.	.	.	.	.	.	.	8cc/	.	.	.	.	8ccc\)	.
.	.	.	.	.	4.GG/	8GG\L	8r	.	4.d/	4.G\	-rem	4.b-/	4.g\	-rem	.	4.G\	-rem	.	4.d\	-rem	.	4.g/	.	.	4.b-\	-rem	.	4.G\	-rem	.	4.d\	-rem	.	4.g/	.	.	4.b-\	-rem	.	.	.	.	.	4.G/ 4.GG/	.	4.g/	4.d\	.	4.b-/	4.g\	.	4.gg\	.	4.bb-\	.
.	.	.	.	.	.	8G\	8b-/L 8g/ 8d/	.	.	.	.	.	.	.	.	.	.	.	.	.	.	.	.	.	.	.	.	.	.	.	.	.	.	.	.	.	.	.	.	.	.	.	.	.	.	.	.	.	.	.	.	.	.	.	.
.	.	.	.	.	.	8G\J	8b-/J 8g/ 8d/	.	.	.	.	.	.	.	.	.	.	.	.	.	.	.	.	.	.	.	.	.	.	.	.	.	.	.	.	.	.	.	.	.	.	.	.	.	.	.	.	.	.	.	.	.	.	.	.
*	*	*	*	*	*	*	*	*	*v	*v	*	*	*	*	*	*	*	*	*	*	*	*	*	*	*	*	*	*	*	*	*	*	*	*	*	*	*	*	*	*	*	*	*	*	*	*v	*v	*	*	*	*	*	*	*	*
*	*	*	*	*	*	*	*	*	*	*	*v	*v	*	*	*	*	*	*	*	*	*	*	*	*	*	*	*	*	*	*	*	*	*	*	*	*	*	*	*	*	*	*	*	*	*	*	*	*	*	*	*	*	*
=47	=47	=47	=47	=47	=47	=47	=47	=47	=47	=47	=47	=47	=47	=47	=47	=47	=47	=47	=47	=47	=47	=47	=47	=47	=47	=47	=47	=47	=47	=47	=47	=47	=47	=47	=47	=47	=47	=47	=47	=47	=47	=47	=47	=47	=47	=47	=47	=47	=47	=47	=47	=47
!	!	!	!	!	!	!	!	!LO:DY:rj	!	!	!	!	!	!	!	!LO:DY:rj	!	!	!	!	!	!	!	!	!LO:DY:rj	!	!	!LO:DY:rj	!	!	!	!	!	!	!	!	!LO:DY:rj	!	!	!	!	!LO:S:s=2:note:problem=note-level slur	!LO:DY:rj	!	!	!	!	!LO:DY:a:rj	!	!	!	!
2.ryy	2.ryy	2.ryy	2.ryy	2.ryy	4.C/	8C\L	8r	p	2.r	.	2.r	.	.	4C/	ob	p	4e-\	.	.	4g/	.	.	4a/	ob	p	4C/	ob	p	4e-\	ob	.	4g/	.	.	4a/	ob	p	2.ryy	2.ryy	2.ryy	2.ryy	(4.c\ (>4.C\	p	2.r	.	[4.a/	4.e-X\	p	2.r	.	2.r	.
.	.	.	.	.	.	8c\	8a/L 8g/ 8e-/	.	.	.	.	.	.	.	.	.	.	.	.	.	.	.	.	.	.	.	.	.	.	.	.	.	.	.	.	.	.	.	.	.	.	.	.	.	.	.	.	.	.	.	.	.
.	.	.	.	.	.	8c\J	8a/J 8g/ 8e-/	.	.	.	.	.	.	8C/	a-	.	8e-\	.	.	8g/	.	.	8a/	a-	.	8C/	a-	.	8e-\	a-	.	8g/	.	.	8a/	a-	.	.	.	.	.	.	.	.	.	.	.	.	.	.	.	.
.	.	.	.	.	4.C#X/	8C#\L	8r	.	.	.	.	.	.	4C#X/	-mo-	.	4en\	.	.	4g/	.	.	4a/	-mo-	.	4C#X/	-mo-	.	4en\	-mo-	.	4g/	.	.	4a/	-mo-	.	.	.	.	.	4c#X\) 4C#X\)	.	.	.	4a/]	4e\	.	.	.	.	.
.	.	.	.	.	.	8c#X\	8a/L 8g/ 8en/	.	.	.	.	.	.	.	.	.	.	.	.	.	.	.	.	.	.	.	.	.	.	.	.	.	.	.	.	.	.	.	.	.	.	.	.	.	.	.	.	.	.	.	.	.
.	.	.	.	.	.	8c#\J	8a/J 8g/ 8e/	.	.	.	.	.	.	8C#/	-rem	.	8e\	.	.	8g/	.	.	8a/	-rem	.	8C#/	-rem	.	8e\	-rem	.	8g/	.	.	8a/	-rem	.	.	.	.	.	8c#\ 8C#\	.	.	.	8a/	8e\	.	.	.	.	.
*	*	*	*	*	*v	*v	*	*	*	*	*	*	*	*	*	*	*	*	*	*	*	*	*	*	*	*	*	*	*	*	*	*	*	*	*	*	*	*	*	*	*	*	*	*	*	*	*	*	*	*	*	*
=48	=48	=48	=48	=48	=48	=48	=48	=48	=48	=48	=48	=48	=48	=48	=48	=48	=48	=48	=48	=48	=48	=48	=48	=48	=48	=48	=48	=48	=48	=48	=48	=48	=48	=48	=48	=48	=48	=48	=48	=48	=48	=48	=48	=48	=48	=48	=48	=48	=48	=48	=48
*	*	*	*	*	*	*^	*	*	*	*	*	*	*	*	*	*	*	*	*	*	*	*	*	*	*	*	*	*	*	*	*	*	*	*	*	*	*	*	*	*	*	*	*	*	*	*	*	*	*	*	*
2.ryy	2.ryy	2.ryy	2.ryy	2.ryy	8D\	8r	8ryy	.	2.r	.	2.r	.	.	4D\	fi-	.	4.d\	.	.	(4g/	.	.	(4a/	fi-	.	4D\	fi-	.	4d\	fi-	.	(4g/	.	.	(4a/	fi-	.	2.ryy	2.ryy	2.ryy	2.ryy	4.d\ 4.D\	.	4r	.	(4.a/	4g\	.	4r	.	4r	.
.	.	.	.	.	8r	8a/L	8g\	.	.	.	.	.	.	.	.	.	.	.	.	.	.	.	.	.	.	.	.	.	.	.	.	.	.	.	.	.	.	.	.	.	.	.	.	.	.	.	.	.	.	.	.	.
.	.	.	.	.	8D/ 8DD/	8a/J	16f#X\LL	.	.	.	.	.	.	8D\	-li-	.	.	.	.	16f#X/LL	.	.	8dd\)	-li-	.	8D\	-li-	.	8d\	-li-	.	16f#X/LL	.	.	8dd\)	-li-	.	.	.	.	.	.	.	8r	.	.	16f#\LL	.	8r	.	8r	.
.	.	.	.	.	.	.	16en\JJ	.	.	.	.	.	.	.	.	.	.	.	.	16en/JJ)	.	.	.	.	.	.	.	.	.	.	.	16en/JJ)	.	.	.	.	.	.	.	.	.	.	<	.	.	.	16e-\JJ	.	.	.	.	.
!	!	!	!	!	!	!	!	!	!	!	!	!	!	!	!	!LO:HP:b	!	!	!	!	!	!	!	!	!	!	!	!	!	!	!	!	!	!	!	!	!	!	!	!	!	!	!	!	!	!	!	!	!	!	!	!LO:HP:a
.	.	.	.	.	4D/ 4DD/	4dd/ 4f#/ 4d/	4.ryy	.	.	.	.	.	.	(4D\	-i	<	4.d\	.	.	4.f#/	.	.	4.dd\	-i	.	(4D\	-i	.	4.d\	-i	.	4.f#/	.	.	4.dd\	-i	.	.	.	.	.	4d\ 4D\	.	4r	.	4dd/)	4f#\	.	4r	.	4r	f <
.	.	.	.	.	8r	8r	.	.	.	.	.	.	.	8cn\)	.	[[	.	.	.	.	.	.	.	.	.	8c\)	.	.	.	.	.	.	.	.	.	.	.	.	.	.	.	8cn\ 8Cn\	[[	8d/ 8D/	.	8dd/	8f#\	.	(8ff#X\	.	8ddd\	[[
*	*	*	*	*	*	*v	*v	*	*	*	*	*	*	*	*	*	*	*	*	*	*	*	*	*	*	*	*	*	*	*	*	*	*	*	*	*	*	*	*	*	*	*	*	*	*	*	*	*	*	*	*	*
!!LO:PB:g=original
=49	=49	=49	=49	=49	=49	=49	=49	=49	=49	=49	=49	=49	=49	=49	=49	=49	=49	=49	=49	=49	=49	=49	=49	=49	=49	=49	=49	=49	=49	=49	=49	=49	=49	=49	=49	=49	=49	=49	=49	=49	=49	=49	=49	=49	=49	=49	=49	=49	=49	=49	=49
!	!	!	!	!	!	!	!	!	!	!	!	!	!	!	!LO:DY:rj	!	!	!	!	!	!	!	!	!LO:DY:rj	!	!	!LO:DY:rj	!	!	!	!	!	!	!	!	!LO:DY:rj	!	!	!	!	!	!	!	!	!	!	!	!LO:TX:t=P:problem=brak zakończenia łuku	!	!	!LO:DY:rj
2.ryy	2.ryy	2.ryy	2.ryy	2.ryy	2.r	2.r	.	2.r	.	2.r	.	.	4B-\	Ob	f	4d\	.	.	4g/	.	.	(8.dd\L	Ob	f	4B-\	Ob	f	4d\	.	.	4g/	.	.	(8.dd\L	Ob	f	2.ryy	2.ryy	2.ryy	2.ryy	4B-\ 4BB-\	.	4.d/ 4.D/	.	(8.dd/L	4.g\	.	4.gg\)	.	(8.ddd\L	f
.	.	.	.	.	.	.	.	.	.	.	.	.	.	.	.	.	.	.	.	.	.	16ee-\L	.	.	.	.	.	.	.	.	.	.	.	16ee-\L	.	.	.	.	.	.	.	.	.	.	16ee-/L	.	.	.	.	16eee-\L	.
.	.	.	.	.	.	.	.	.	.	.	.	.	8B-\	a-	.	8d\	.	.	8g/	.	.	16dd\JJ)	.	.	8B-\	a-	.	8d\	.	.	8g/	.	.	16dd\JJ)	.	.	.	.	.	.	8d\ 8B-\	.	.	.	16dd/	.	.	.	.	16ddd\	.
.	.	.	.	.	.	.	.	.	.	.	.	.	.	.	.	.	.	.	.	.	.	16g/	a-	.	.	.	.	.	.	.	.	.	.	16g/	a-	.	.	.	.	.	.	.	.	.	16b-/JJ)	.	.	.	.	16gg\JJ)	.
.	.	.	.	.	.	.	.	.	.	.	.	.	(8.Bn\L	-mo-	.	(8.d\L	.	.	4g/	.	.	4gg\	-mo-	.	(8.Bn\L	-mo-	.	(8.d\L	.	.	4g/	.	.	4gg\	-mo-	.	.	.	.	.	(8.d\L 8.Bn\	.	8d/ 8D/	.	(4gg/	4.g\	.	4.gg\	.	(4ggg\	.
.	.	.	.	.	.	.	.	.	.	.	.	.	.	.	.	.	.	.	.	.	.	.	.	.	.	.	.	.	.	.	.	.	.	.	.	.	.	.	.	.	.	.	8r	.	.	.	.	.	.	.	.
.	.	.	.	.	.	.	.	.	.	.	.	.	16G\Jk)	.	.	16Bn\Jk)	.	.	.	.	.	.	.	.	16G\Jk)	.	.	16Bn\Jk)	.	.	.	.	.	.	.	.	.	.	.	.	16B\L 16G\	.	.	.	.	.	.	.	.	.	.
.	.	.	.	.	.	.	.	.	.	.	.	.	(16A\LL	-rem	.	(16c\LL	.	.	8g/	.	.	8ff\	-rem	.	(16A\LL	-rem	.	(16c\LL	.	.	8g/	.	.	8ff\	-rem	.	.	.	.	.	16c\ 16A\	.	8r	.	8ffnX/)	.	.	.	.	8fff\)	.
.	.	.	.	.	.	.	.	.	.	.	.	.	16B\JJ)	.	.	16d\JJ)	.	.	.	.	.	.	.	.	16B\JJ)	.	.	16d\JJ)	.	.	.	.	.	.	.	.	.	.	.	.	16d\JJ 16B\)	.	.	.	.	.	.	.	.	.	.
=50	=50	=50	=50	=50	=50	=50	=50	=50	=50	=50	=50	=50	=50	=50	=50	=50	=50	=50	=50	=50	=50	=50	=50	=50	=50	=50	=50	=50	=50	=50	=50	=50	=50	=50	=50	=50	=50	=50	=50	=50	=50	=50	=50	=50	=50	=50	=50	=50	=50	=50	=50
*	*	*	*	*	*	*	*	*	*	*	*	*	*	*	*	*	*	*	*	*	*	*	*	*	*	*	*	*	*	*	*	*	*	*	*	*	*	*	*	*	*	*	*^	*	*	*	*	*	*	*	*
2.ryy	2.ryy	2.ryy	2.ryy	2.ryy	2.r	2.r	.	2.r	.	2.r	.	.	4c\	ob	.	4c\	.	.	4g/	.	.	(8.ee-\L	ob	.	4c\	ob	.	4c\	.	.	4g/	.	.	(8.ee-\L	ob	.	2.ryy	2.ryy	2.ryy	2.ryy	4c\	.	[4.cX/	[4.cn\	.	8.ee-/L	4.g\	.	4.gg\	.	(8.eee-\L	.
.	.	.	.	.	.	.	.	.	.	.	.	.	.	.	.	.	.	.	.	.	.	16cc\Jk)	.	.	.	.	.	.	.	.	.	.	.	16cc\Jk)	.	.	.	.	.	.	.	.	.	.	.	16cc/L	.	.	.	.	16ccc\L	.
.	.	.	.	.	.	.	.	.	.	.	.	.	8B-\	a-	.	8c\	.	.	8g/	.	.	(16dd\LL	a-	.	8B-\	a-	.	8c\	.	.	8g/	.	.	(16dd\LL	a-	.	.	.	.	.	8c\ 8B-\	.	.	.	.	16dd/	.	.	.	.	16ddd\	.
.	.	.	.	.	.	.	.	.	.	.	.	.	.	.	.	.	.	.	.	.	.	16ee-\JJ)	.	.	.	.	.	.	.	.	.	.	.	16ee-\JJ)	.	.	.	.	.	.	.	.	.	.	.	16ee-/JJ	.	.	.	.	16eee-\JJ)	.
.	.	.	.	.	.	.	.	.	.	.	.	.	(8.A\L	-mo-	.	(8.c\L	.	.	4.f/	mo-	.	4ff\	-mo-	.	(8.A\L	-mo-	.	(8.c\L	.	.	4.f/	mo-	.	(4ff\	-mo-	.	.	.	.	.	(8.c\L 8.A\	.	8c/]	8c\]	.	4ffnX/	4.fnX\	.	4.ffn\	.	(4fff\	.
.	.	.	.	.	.	.	.	.	.	.	.	.	.	.	.	.	.	.	.	.	.	.	.	.	.	.	.	.	.	.	.	.	.	.	.	.	.	.	.	.	.	.	8r	8ryy	.	.	.	.	.	.	.	.
.	.	.	.	.	.	.	.	.	.	.	.	.	16F\Jk)	.	.	16A\Jk)	.	.	.	.	.	.	.	.	16F\Jk)	.	.	16A\Jk)	.	.	.	.	.	.	.	.	.	.	.	.	16A\L 16F\	.	.	.	.	.	.	.	.	.	.	.
.	.	.	.	.	.	.	.	.	.	.	.	.	(16G\LL	-rem	.	(16B-\LL	.	.	.	.	.	8ee-\	-rem	.	(16G\LL	-rem	.	(16B-\LL	.	.	.	.	.	8ee-\)	-rem	.	.	.	.	.	16B-\ 16G\	.	8r	8ryy	.	8ee-/	.	.	.	.	8eee-\)	.
.	.	.	.	.	.	.	.	.	.	.	.	.	16A\JJ)	.	.	16c\JJ)	.	.	.	.	.	.	.	.	16A\JJ)	.	.	16c\JJ)	.	.	.	.	.	.	.	.	.	.	.	.	16c\JJ 16A\	.	.	.	.	.	.	.	.	.	.	.
=51	=51	=51	=51	=51	=51	=51	=51	=51	=51	=51	=51	=51	=51	=51	=51	=51	=51	=51	=51	=51	=51	=51	=51	=51	=51	=51	=51	=51	=51	=51	=51	=51	=51	=51	=51	=51	=51	=51	=51	=51	=51	=51	=51	=51	=51	=51	=51	=51	=51	=51	=51	=51
2.ryy	2.ryy	2.ryy	2.ryy	2.ryy	2.r	2.r	.	2.r	.	2.r	.	.	(8.B-\L	Ob	.	4d\	.	.	8f/	-rem	.	(8.dd\L	Ob	.	(8.B-\L	Ob	.	4d\	.	.	8f/	-rem	.	(8.dd\L	Ob	.	2.ryy	2.ryy	2.ryy	2.ryy	(8.B-\L)	.	4d/ 4D/	4ryy	.	8.dd/L	8fnX\	.	8ff\	.	(8.ddd\L	.
.	.	.	.	.	.	.	.	.	.	.	.	.	.	.	.	.	.	.	8r	.	.	.	.	.	.	.	.	.	.	.	8r	.	.	.	.	.	.	.	.	.	.	.	.	.	.	.	8r	.	8r	.	.	.
.	.	.	.	.	.	.	.	.	.	.	.	.	16F#X\Jk)	.	.	.	.	.	.	.	.	16a\Jk)	.	.	16F#X\Jk)	.	.	.	.	.	.	.	.	16a\Jk)	.	.	.	.	.	.	16F#X\L	.	.	.	.	16a/L	.	.	.	.	16aa\L	.
.	.	.	.	.	.	.	.	.	.	.	.	.	(16G\LL	a-	.	8d\	.	.	8r	.	.	(16b-/LL	a-	.	(16G\LL	a-	.	8d\	.	.	8r	.	.	(16b-/LL	a-	.	.	.	.	.	16G\	.	8d/	8d\	.	16b-/	8r	.	8r	.	16bb-\	.
.	.	.	.	.	.	.	.	.	.	.	.	.	16Fn\JJ)	.	.	.	.	.	.	.	.	16a/JJ)	.	.	16Fn\JJ)	.	.	.	.	.	.	.	.	16a/JJ)	.	.	.	.	.	.	16Fn\JJ)	.	.	.	.	16a/JJ	.	.	.	.	16aa\JJ)	.
.	.	.	.	.	.	.	.	.	.	.	.	.	4E-\	-mo-	.	(8d\L	.	.	4r	.	.	4g/	-mo-	.	4E-\	-mo-	.	(8d\L	.	.	4r	.	.	4g/	-mo-	.	.	.	.	.	4E-\	.	4.cX/	4.cn\	.	4g/	4r	.	4r	.	(4gg\	.
.	.	.	.	.	.	.	.	.	.	.	.	.	.	.	.	8c\J)	.	.	.	.	.	.	.	.	.	.	.	8c\J)	.	.	.	.	.	.	.	.	.	.	.	.	.	.	.	.	.	.	.	.	.	.	.	.
.	.	.	.	.	.	.	.	.	.	.	.	.	8C/	-rem	.	8A\	.	.	(8e-/	fi-	.	8cc\	-rem	.	8C/	-rem	.	8A\	.	.	(8e-/	fi-	.	8cc\	-rem	.	.	.	.	.	8C/	.	.	.	.	8cc/	8e-\	.	8ee-\	.	8ccc\	.
!!LO:PB:g=original
=52	=52	=52	=52	=52	=52	=52	=52	=52	=52	=52	=52	=52	=52	=52	=52	=52	=52	=52	=52	=52	=52	=52	=52	=52	=52	=52	=52	=52	=52	=52	=52	=52	=52	=52	=52	=52	=52	=52	=52	=52	=52	=52	=52	=52	=52	=52	=52	=52	=52	=52	=52	=52
!	!	!	!	!	!	!	!	!	!	!	!	!	!	!	!	!	!	!	!	!	!	!	!	!	!	!	!	!	!	!	!	!	!	!LO:TX:a:i:t=rall&colon;	!	!	!	!	!	!	!	!	!	!	!	!	!	!	!LO:TX:t=P:problem=brak zakończenia łuku	!	!LO:TX:t=P:problem=brak zakończenia łuku	!
2.ryy	2.ryy	2.ryy	2.ryy	2.ryy	2.r;	2.r;	.	2.r;	.	2.r;	.	.	4D\	fi-	.	4G/	.	.	4d/)	.	.	4b-\	fi-	.	[4D\	fi-	.	4G/	.	.	4d/)	.	.	4b-/	fi-	.	2.ryy	2.ryy	2.ryy	2.ryy	[4D\	.	[4d/	[4d\	.	4b-/	4g\	.	4dd\	.	4bb-\)	.
.	.	.	.	.	.	.	.	.	.	.	.	.	.	.	.	(8qG/	.	.	(8qd/	.	.	(8qb-/	.	.	.	.	.	(8qG/	.	.	(8qd/	.	.	(8qb-/	.	.	.	.	.	.	.	.	.	.	.	.	(8qb-/ (8qg/	.	(8qdd/	.	(8qbb-/	.
.	.	.	.	.	.	.	.	.	.	.	.	.	(16.D\LL	-li-	.	16.F#X/LL)	.	.	16.c/LL)	-li-	.	16.a/LL)	-li-	.	(16.D\LL]	-li-	.	16.F#X/LL)	.	.	16.c/LL)	-li-	.	16.a/LL)	-li-	.	.	.	.	.	16.D\LL]	.	16.d/LL]	16.d\LL]	.	2ryy	16.a\LL 16.f#\))	.	16.cc\LL)	.	16.aa\LL)	.
.	.	.	.	.	.	.	.	.	.	.	.	.	32E-\JJk)	.	.	32G/JJk	.	.	32B-/JJk	.	.	32g/JJk	.	.	32E-\JJk)	.	.	32G/JJk	.	.	32B-/JJk	.	.	32g/JJk	.	.	.	.	.	.	32E-X\JJk	.	32e-X/JJk	32e-\JJk	.	.	32g\JJk	.	32b-\JJk	.	32gg\JJk	.
.	.	.	.	.	.	.	.	.	.	.	.	.	8E-;\	-i	.	8G;</	.	.	8B-;/	-i	.	8g;/	-i	.	8E-;\	-i	.	8G;</	.	.	8B-;/	-i	.	8g/	-i	.	.	.	.	.	8E-;\	.	8e-;/	8e-\	.	.	8g;>\	.	8b-;\	.	8gg;\	.
!	!	!	!	!	!	!	!	!	!	!	!	!	!	!	!LO:DY:rj	!	!	!	!	!	!	!	!	!LO:DY:rj	!	!	!LO:DY:rj	!	!	!	!	!	!	!	!	!LO:DY:rj	!	!	!	!	!	!	!	!	!	!	!	!	!	!	!	!
.	.	.	.	.	.	.	.	.	.	.	.	.	8E-\	ob	p	8G/	.	.	8B-/	.	.	8g/	Ob	p	8E-\	ob	p	8G/	.	.	8B-/	.	.	8g/	Ob	p	.	.	.	.	8r	.	8r	8ryy	.	.	8r	.	8r	.	8r	.
.	.	.	.	.	.	.	.	.	.	.	.	.	8C/	a-	.	8c\	.	.	8e-/	.	.	8a/	a-	.	8C/	a-	.	8c\	.	.	8e-/	.	.	8a/	a-	.	.	.	.	.	8r	.	8r	8ryy	.	.	8r	.	8r	.	8r	.
*	*	*	*	*	*	*	*	*	*	*	*	*	*	*	*	*	*	*	*	*	*	*	*	*	*	*	*	*	*	*	*	*	*	*	*	*	*	*	*	*	*	*	*v	*v	*	*	*	*	*	*	*	*
*	*	*	*	*	*	*	*	*	*	*	*	*	*	*	*	*	*	*	*	*	*	*	*	*	*	*	*	*	*	*	*	*	*	*	*	*	*	*	*	*	*	*	*	*	*v	*v	*	*	*	*	*
=53	=53	=53	=53	=53	=53	=53	=53	=53	=53	=53	=53	=53	=53	=53	=53	=53	=53	=53	=53	=53	=53	=53	=53	=53	=53	=53	=53	=53	=53	=53	=53	=53	=53	=53	=53	=53	=53	=53	=53	=53	=53	=53	=53	=53	=53	=53	=53	=53	=53	=53
!	!	!	!	!	!	!	!	!	!	!	!	!	!	!	!	!	!	!	!	!	!	!	!	!	!	!	!	!	!	!	!	!	!	!LO:TX:a:i:t=a tempo	!	!	!	!	!	!	!	!	!	!	!	!	!	!	!	!
2.ryy	2.ryy	2.ryy	2.ryy	2.ryy	2.r	2.r	.	2.r	.	2.r	.	.	4D\	-mo-	.	4B-\	.	.	4d/	.	.	4d/	-mo-	.	4D\	-mo-	.	4B-\	.	.	4d/	.	.	4d/	-mo-	.	2.ryy	2.ryy	2.ryy	2.ryy	2.r	.	2.r	.	2.r	.	2.r	.	2.r	.
.	.	.	.	.	.	.	.	.	.	.	.	.	8D\	-rem	.	8B-\	.	.	8d/	.	.	8g/	-rem	.	8D\	-rem	.	8B-\	.	.	8d/	.	.	8g/	-rem	.	.	.	.	.	.	.	.	.	.	.	.	.	.	.
.	.	.	.	.	.	.	.	.	.	.	.	.	4D\	fi-	.	(8.d\L	.	.	4d/	.	.	(8.b-/L	fi-	.	4D\	fi-	.	(8.d\L	.	.	4d/	.	.	(8.b-/L	fi-	.	.	.	.	.	.	.	.	.	.	.	.	.	.	.
.	.	.	.	.	.	.	.	.	.	.	.	.	.	.	.	16c\Jk)	.	.	.	.	.	16a/Jk)	.	.	.	.	.	16c\Jk)	.	.	.	.	.	16a/Jk)	.	.	.	.	.	.	.	.	.	.	.	.	.	.	.	.
.	.	.	.	.	.	.	.	.	.	.	.	.	8D\	-li-	.	(16B-\LL	.	.	8d/	.	.	(16g/LL	-li-	.	8D\	-li-	.	(16B-\LL	.	.	8d/	.	.	(16g/LL	-li-	.	.	.	.	.	.	.	.	.	.	.	.	.	.	.
.	.	.	.	.	.	.	.	.	.	.	.	.	.	.	.	16A\JJ)	.	.	.	.	.	16f#X/JJ)	.	.	.	.	.	16A\JJ)	.	.	.	.	.	16f#X/JJ)	.	.	.	.	.	.	.	.	.	.	.	.	.	.	.	.
=54	=54	=54	=54	=54	=54	=54	=54	=54	=54	=54	=54	=54	=54	=54	=54	=54	=54	=54	=54	=54	=54	=54	=54	=54	=54	=54	=54	=54	=54	=54	=54	=54	=54	=54	=54	=54	=54	=54	=54	=54	=54	=54	=54	=54	=54	=54	=54	=54	=54	=54
*	*	*	*	*	*	*	*	*	*	*^	*	*	*	*	*	*	*	*	*	*	*	*	*	*	*	*	*	*	*	*	*	*	*	*	*	*	*	*	*	*	*^	*	*	*	*	*	*	*	*	*
2.ryy	2.ryy	2.ryy	2.ryy	2.ryy	2.r	2.r	.	4r	.	4r	4.ryy	.	.	4G\	-i	.	4B-\	.	.	4d/	.	.	4g/	-i	.	4G\	-i	.	4B-\	.	.	4d/	.	.	4g/	-i	.	2.ryy	2.ryy	2.ryy	2.ryy	4r	4.ryy	.	4r	.	4r	.	4r	.	4r	.
.	.	.	.	.	.	.	.	8r	.	8r	.	.	.	8r	.	.	8r	.	.	8r	.	.	8r	.	.	8r	.	.	8r	.	.	8r	.	.	8r	.	.	.	.	.	.	8r	.	.	8r	.	8r	.	8r	.	8r	.
!	!	!	!	!	!	!	!	!	!	!	!	!	!LO:DY:rj	!	!	!LO:DY:rj	!	!	!	!	!	!	!	!	!LO:DY:rj	!	!	!	!	!	!	!	!	!	!	!	!LO:DY:rj	!	!	!	!	!	!	!	!	!LO:DY:rj	!	!LO:DY:a:rj	!	!	!	!LO:DY:rj
.	.	.	.	.	.	.	.	4.d\ 4.G\	a	4.g/	4.f\	.	f	4.G\	a	f	4.d\	.	.	4.f/	.	.	4.g/	a	f	4.G\	a-	.	4.d\	.	.	4.f/	.	.	4.g/	a-	f	.	.	.	.	4.d/	4.GG\	.	4.g/ 4.G/	f	4.dd/ 4.f/	f	4.ff\	.	4.gg\	f
*	*	*	*	*	*	*	*	*	*	*v	*v	*	*	*	*	*	*	*	*	*	*	*	*	*	*	*	*	*	*	*	*	*	*	*	*	*	*	*	*	*	*	*	*	*	*	*	*	*	*	*	*	*
!!LO:PB:g=original
=55	=55	=55	=55	=55	=55	=55	=55	=55	=55	=55	=55	=55	=55	=55	=55	=55	=55	=55	=55	=55	=55	=55	=55	=55	=55	=55	=55	=55	=55	=55	=55	=55	=55	=55	=55	=55	=55	=55	=55	=55	=55	=55	=55	=55	=55	=55	=55	=55	=55	=55	=55
*	*	*	*	*	*	*	*	*^	*	*	*	*	*	*	*	*	*	*	*	*	*	*	*	*	*	*	*	*	*	*	*	*	*	*	*	*	*	*	*	*	*	*	*	*	*	*^	*	*	*	*	*
*	*	*	*	*	*	*	*	*	*	*	*	*	*	*	*	*	*	*	*	*	*	*	*	*	*	*	*	*	*	*	*	*	*	*	*	*	*	*	*	*	*	*	*2\right	*	*	*	*	*	*	*	*	*2\right	*
2.ryy	2.ryy	2.ryy	2.ryy	2.ryy	2.r	2.r	.	4.c/	4.G\	.	4.g/ 4.e-/	.	.	4.G\	-mo-	.	4.c\	.	.	4.e-/	.	.	4.g/	-mo-	.	4.G\	-mo-	.	4.c\	.	.	4.e-/	.	.	4.g/	-mo-	.	2.ryy	2.ryy	2.ryy	2.ryy	4.c/	2.GG\	.	2.g/ 2.G/	.	4.cc/	4.e-\	.	4.ee-\	.	2.gg\	.
.	.	.	.	.	.	.	.	4.Bn/	4.G\	.	4.g/ 4.d/	.	.	4.G\	-rem	.	4.Bn\	.	.	4.d/	.	.	4.g/	-rem	.	4.G\	-rem	.	4.Bn\	.	.	4.d/	.	.	4.g/	-rem	.	.	.	.	.	4.Bn/	.	.	.	.	4.b/	4.d\	.	4.dd\	.	.	.
=56	=56	=56	=56	=56	=56	=56	=56	=56	=56	=56	=56	=56	=56	=56	=56	=56	=56	=56	=56	=56	=56	=56	=56	=56	=56	=56	=56	=56	=56	=56	=56	=56	=56	=56	=56	=56	=56	=56	=56	=56	=56	=56	=56	=56	=56	=56	=56	=56	=56	=56	=56	=56	=56
2.ryy	2.ryy	2.ryy	2.ryy	2.ryy	2.r	2.r	.	4.c/	4.G\	.	[4.g/ [4.e-/	.	.	[4.G\	fi-	.	[4.c\	.	.	[4.e-/	.	.	[4.g/	fi-	.	[4.G\	fi-	.	[4.c\	.	.	4.e-/	.	.	[4.g/	fi-	.	2.ryy	2.ryy	2.ryy	2.ryy	[4.c/	[>4.GG\	.	[4.g/ [>4.G/	.	[4.cc/	4.e-\	.	[4.ee-\	.	[4.gg\	.
.	.	.	.	.	.	.	.	4c/	4G\	.	4g/] 4e-/]	.	.	4G\]	.	.	4c\]	.	.	4e-/]	.	.	4g/]	.	.	4G\]	.	.	4c\]	.	.	4e-/	.	.	4g/]	.	.	.	.	.	.	4c/]	4GG\]	.	4g/] 4G/]	.	4cc/]	4e-\	.	4ee-\]	.	4gg\]	.
.	.	.	.	.	.	.	.	8c/	8G\	.	8g/ 8e-/	.	.	8G\	-li-	.	8c\	.	.	8e-/	.	.	8g/	-li-	.	8G\	-li-	.	8c\	.	.	8e-/	.	.	8g/	-li-	.	.	.	.	.	8c/	8GG\	.	8g/ 8G/	.	8cc/	8e-\	.	8ee-\	.	8gg\	.
*	*	*	*	*	*	*	*	*v	*v	*	*	*	*	*	*	*	*	*	*	*	*	*	*	*	*	*	*	*	*	*	*	*	*	*	*	*	*	*	*	*	*	*	*	*	*	*	*	*	*	*	*	*	*
=57	=57	=57	=57	=57	=57	=57	=57	=57	=57	=57	=57	=57	=57	=57	=57	=57	=57	=57	=57	=57	=57	=57	=57	=57	=57	=57	=57	=57	=57	=57	=57	=57	=57	=57	=57	=57	=57	=57	=57	=57	=57	=57	=57	=57	=57	=57	=57	=57	=57	=57	=57	=57
*	*	*	*	*	*	*	*	*2\right	*	*	*	*	*2\right	*	*	*2\right	*	*	*	*	*	*	*	*	*2\right	*	*	*2\right	*	*	*	*	*	*	*	*	*	*	*	*	*	*	*	*	*	*	*2\right	*	*2\right	*	*	*
2.ryy	2.ryy	2.ryy	2.ryy	2.ryy	2.r	2.r	.	[2.Bn\ [2.G\	.	[2.g/ [2.d/	.	.	[2.G\	-i	.	[2.Bn\	.	.	[2.d/	.	.	[2.g/	-i	.	[2.G\	-i	.	2.Bn\	.	.	[2.d/	.	.	[2.g/	-i	.	2.ryy	2.ryy	2.ryy	2.ryy	2.Bn/	2.GG\	.	2.g/ 2.G/	.	[2.b/	[2.d\	.	[2.dd\	.	[2.gg\	.
=58	=58	=58	=58	=58	=58	=58	=58	=58	=58	=58	=58	=58	=58	=58	=58	=58	=58	=58	=58	=58	=58	=58	=58	=58	=58	=58	=58	=58	=58	=58	=58	=58	=58	=58	=58	=58	=58	=58	=58	=58	=58	=58	=58	=58	=58	=58	=58	=58	=58	=58	=58	=58
*	*	*	*	*	*	*	*	*	*	*	*	*	*	*	*	*	*	*	*	*	*	*	*	*	*	*	*	*	*	*	*	*	*	*	*	*	*	*	*	*	*	*	*	*^	*	*	*	*	*	*	*	*
*	*	*	*	*	*Xtuplet	*Xtuplet	*	*	*	*	*	*	*	*	*	*	*	*	*	*	*	*	*	*	*	*	*	*	*	*	*	*	*	*	*	*	*	*	*	*	*	*	*	*	*	*	*	*	*	*	*	*	*
2.ryy	2.ryy	2.ryy	2.ryy	2.ryy	24GG\LL	24G</LL	.	8BnX\] 8G\]	.	8g/] 8d/]	.	.	8G\]	.	.	8BnX\]	.	.	8d/]	.	.	8g/]	.	.	8G\]	.	.	8Bn\	.	.	8d/]	.	.	8g/]	.	.	2.ryy	2.ryy	2.ryy	2.ryy	8Bn/	8GG\	.	8g/ 8G/	2ryy	.	8b/]	8d\]	.	8dd\]	.	8gg\]	.
.	.	.	.	.	24BBn\	24Bn</	.	.	.	.	.	.	.	.	.	.	.	.	.	.	.	.	.	.	.	.	.	.	.	.	.	.	.	.	.	.	.	.	.	.	.	.	.	.	.	.	.	.	.	.	.	.	.
.	.	.	.	.	24D\JJ	24d</JJ	.	.	.	.	.	.	.	.	.	.	.	.	.	.	.	.	.	.	.	.	.	.	.	.	.	.	.	.	.	.	.	.	.	.	.	.	.	.	.	.	.	.	.	.	.	.	.
.	.	.	.	.	24G\LL	24g/LL	.	8r	.	8r	.	.	8r	.	.	8r	.	.	8r	.	.	8r	.	.	8r	.	.	8r	.	.	8r	.	.	8r	.	.	.	.	.	.	8r	8ryy	.	8r	.	.	8r	8ryy	.	8r	.	8r	.
.	.	.	.	.	24Bn\	24bn/	.	.	.	.	.	.	.	.	.	.	.	.	.	.	.	.	.	.	.	.	.	.	.	.	.	.	.	.	.	.	.	.	.	.	.	.	.	.	.	.	.	.	.	.	.	.	.
.	.	.	.	.	24d\JJ	24dd/JJ	.	.	.	.	.	.	.	.	.	.	.	.	.	.	.	.	.	.	.	.	.	.	.	.	.	.	.	.	.	.	.	.	.	.	.	.	.	.	.	.	.	.	.	.	.	.	.
.	.	.	.	.	24g>\LL	24gg/LL	.	8r	.	8r	.	.	8r	.	.	8r	.	.	8r	.	.	8r	.	.	8r	.	.	8r	.	.	8r	.	.	8r	.	.	.	.	.	.	8r	2ryy	.	8r	.	.	8r	8ryy	.	8r	.	8r	.
.	.	.	.	.	24bn>\	24bbn/	.	.	.	.	.	.	.	.	.	.	.	.	.	.	.	.	.	.	.	.	.	.	.	.	.	.	.	.	.	.	.	.	.	.	.	.	.	.	.	.	.	.	.	.	.	.	.
.	.	.	.	.	24dd>\JJ	24ddd/JJ	.	.	.	.	.	.	.	.	.	.	.	.	.	.	.	.	.	.	.	.	.	.	.	.	.	.	.	.	.	.	.	.	.	.	.	.	.	.	.	.	.	.	.	.	.	.	.
.	.	.	.	.	8gg>\ 8dd>\ 8bn>\ 8g>\	8ggg/ 8ddd/ 8bbn/	.	4r	.	4r	.	.	4r	.	.	4r	.	.	4r	.	.	4r	.	.	4r	.	.	4r	.	.	4r	.	.	4r	.	.	.	.	.	.	4r	.	.	4r	.	.	4r	4ryy	.	4r	.	4r	.
.	.	.	.	.	4r	8r	.	.	.	.	.	.	.	.	.	.	.	.	.	.	.	.	.	.	.	.	.	.	.	.	.	.	.	.	.	.	.	.	.	.	.	.	.	.	8ryy	.	.	.	.	.	.	.	.
!	!	!	!	!	!	!	!	!	!	!	!	!	!	!	!	!	!	!	!	!	!	!	!	!	!	!	!	!	!	!	!	!	!	!	!	!	!	!	!	!	!	!	!LO:DY:rj	!	!	!	!	!	!LO:DY:rj	!	!	!	!LO:DY:rj
.	.	.	.	.	.	8r	.	8r	.	8r	.	.	8r	.	.	8r	.	.	8r	.	.	8r	.	.	8r	.	.	8r	.	.	8r	.	.	8r	.	.	.	.	.	.	8Bn\ 8BBn\	.	f	8f#/	8d#X\	.	8dd#X/	8b\	f	(8bbn^<\	.	(8bbn\	f
*	*	*	*	*	*	*	*	*	*	*	*	*	*	*	*	*	*	*	*	*	*	*	*	*	*	*	*	*	*	*	*	*	*	*	*	*	*	*	*	*	*v	*v	*	*	*	*	*	*	*	*	*	*	*
!!LO:PB:g=original
=59	=59	=59	=59	=59	=59	=59	=59	=59	=59	=59	=59	=59	=59	=59	=59	=59	=59	=59	=59	=59	=59	=59	=59	=59	=59	=59	=59	=59	=59	=59	=59	=59	=59	=59	=59	=59	=59	=59	=59	=59	=59	=59	=59	=59	=59	=59	=59	=59	=59	=59	=59	=59
!	!	!	!	!	!	!	!	!	!	!	!	!	!	!	!	!	!	!	!	!	!	!	!	!	!	!	!	!	!	!	!	!	!	!	!	!	!	!	!	!	!	!	!	!	!	!	!	!	!LO:TX:t=P:problem=brak zakończenia łuku	!	!LO:TX:t=P:problem=brak zakończenia łuku	!
2.ryy	2.ryy	2.ryy	2.ryy	2.ryy	2.r	2.r	.	2.ryy	.	2.ryy	.	.	2.ryy	.	.	2.ryy	.	.	2.ryy	.	.	2.ryy	.	.	2.r	.	.	2.r	.	.	2.r	.	.	2.r	.	.	2.ryy	2.ryy	2.ryy	2.ryy	4en\ 4En\	.	4e/	4e\	.	4ee-/	4b-\	.	4gg\)	.	4gg\)	.
!	!	!	!	!	!	!	!	!	!	!	!	!	!	!	!	!	!	!	!	!	!	!	!	!	!	!	!	!	!	!	!	!	!	!	!	!	!	!	!	!	!	!	!	!	!	!LO:SIC:v:s=8cc#X/	!	!	!	!	!	!
.	.	.	.	.	.	.	.	.	.	.	.	.	.	.	.	.	.	.	.	.	.	.	.	.	.	.	.	.	.	.	.	.	.	.	.	.	.	.	.	.	8A\ 8AA\	.	8e/ 8A/	8ryy	.	8cc##/	8an\	.	(8aa^<\	.	(8aa^<\	.
.	.	.	.	.	.	.	.	.	.	.	.	.	.	.	.	.	.	.	.	.	.	.	.	.	.	.	.	.	.	.	.	.	.	.	.	.	.	.	.	.	4d\ 4D\	.	4f#/	4d\	.	4dd/	4a\	.	4ff#X\)	.	4ff#X\)	.
.	.	.	.	.	.	.	.	.	.	.	.	.	.	.	.	.	.	.	.	.	.	.	.	.	.	.	.	.	.	.	.	.	.	.	.	.	.	.	.	.	8G\ 8GG\	.	8r	8ryy	.	8b-X/	8gnX\	.	(8een^<\	.	(8een^<\	.
*	*	*	*	*	*	*	*	*	*	*	*	*	*	*	*	*	*	*	*	*	*	*	*	*	*	*	*	*	*	*	*	*	*	*	*	*	*	*	*	*	*	*	*v	*v	*	*	*	*	*	*	*	*
=60	=60	=60	=60	=60	=60	=60	=60	=60	=60	=60	=60	=60	=60	=60	=60	=60	=60	=60	=60	=60	=60	=60	=60	=60	=60	=60	=60	=60	=60	=60	=60	=60	=60	=60	=60	=60	=60	=60	=60	=60	=60	=60	=60	=60	=60	=60	=60	=60	=60	=60	=60
2.ryy	2.ryy	2.ryy	2.ryy	2.ryy	4r	4r	.	2.ryy	.	2.ryy	.	.	2.ryy	.	.	2.ryy	.	.	2.ryy	.	.	2.ryy	.	.	2.r;	.	.	2.r;	.	.	2.r;	.	.	2.r;	.	.	2.ryy	2.ryy	2.ryy	2.ryy	[4.A\ [>4.AA\	.	4r	.	4.a/	4.f#\	.	4dd\)	.	(4dd\)	.
.	.	.	.	.	8r	8r	.	.	.	.	.	.	.	.	.	.	.	.	.	.	.	.	.	.	.	.	.	.	.	.	.	.	.	.	.	.	.	.	.	.	.	.	8r	.	.	.	.	8a\	.	8a\)	.
.	.	.	.	.	4r	4r	.	.	.	.	.	.	.	.	.	.	.	.	.	.	.	.	.	.	.	.	.	.	.	.	.	.	.	.	.	.	.	.	.	.	4A\] 4AA\]	.	4r	.	4g#/	4fX\	.	(4bn\	.	(4bn\	.
.	.	.	.	.	8A\ 8En\ 8C#X\ 8AA\	8ccc#X\ 8aa\ 8gg\ 8een\	.	.	.	.	.	.	.	.	.	.	.	.	.	.	.	.	.	.	.	.	.	.	.	.	.	.	.	.	.	.	.	.	.	.	8A\ 8AA\	.	8e/ 8A/	.	8gX/	8e\	.	8cc#X\)	.	8cc#X\)	.
*	*	*	*	*	*	*	*	*	*	*	*	*	*	*	*	*	*	*	*	*	*	*	*	*	*	*	*	*	*	*	*	*	*	*	*	*	*	*	*	*	*	*	*	*	*v	*v	*	*	*	*	*
==	==	==	==	==	==	==	==	==	==	==	==	==	==	==	==	==	==	==	==	==	==	==	==	==	==	==	==	==	==	==	==	==	==	==	==	==	==	==	==	==	==	==	==	==	==	==	==	==	==	==
*-	*-	*-	*-	*-	*-	*-	*-	*-	*-	*-	*-	*-	*-	*-	*-	*-	*-	*-	*-	*-	*-	*-	*-	*-	*-	*-	*-	*-	*-	*-	*-	*-	*-	*-	*-	*-	*-	*-	*-	*-	*-	*-	*-	*-	*-	*-	*-	*-	*-	*-
!!!system-decoration: ([{g1},s6,{g2},s9,{g3},{g4},{g5},{g6},{<g7>,s24}{g8}])
!!!AIN: 2 bass 1 cello 1 clars 1 cor 9 empty 1 fagot 1 flt 1 oboe 1 soprn 2 tenor 1 timpa 1 tromp 2 tromt 1 viola
!!!ENC: Andrzej Gręziak
!!!END: 2021-08-12
!!!RDF**kern: > = above
!!!RDF**kern: < = below
!!!EED: Andrzej Borzym
!!!EST: 2021-10-13
